; GCode generated by CraftWare

G28 X0 Y0
G28 Z0


M104 S225 ;set head temp (no wait)
M190 S85 ;set bed temp (wait)
M109 S225 ;set head temp (wait)
; ------------------------------------
; Layer #0
; ------------------------------------
M106 S0 ;turn off fan
G21 ; mm
G90 ; abs
G92 E0 ;reset extr
G0 F1200 Z0.250
;segType:Support
G0 F3000 E-1.0000
G0 X208.100 Y99.100 F5400
G0 F3000 E0.0000
G1 X209.900 Y99.100 E0.0954 F3600
G1 X209.900 Y100.900 E0.1908
G1 X208.100 Y100.900 E0.2862
G1 X209.900 Y102.700 E0.4212
G1 X208.100 Y102.700 E0.5166
G1 X208.100 Y104.500 E0.6120
G1 X209.900 Y104.500 E0.7074
G1 X209.900 Y106.300 E0.8028
G1 X208.100 Y106.300 E0.8983
G1 X208.100 Y108.100 E0.9937
G1 X209.900 Y108.100 E1.0891
G1 X208.100 Y109.900 E1.2240
G1 X209.900 Y109.900 E1.3194
G1 X209.900 Y111.700 E1.4149
G1 X208.100 Y111.700 E1.5103
G1 X209.900 Y113.500 E1.6452
G1 X204.500 Y113.500 E1.9315
G1 X204.500 Y115.300 E2.0269
G1 X209.900 Y115.300 E2.3131
G0 F3000 E1.3131
G0 X205.941 Y130.554 F5400
G0 F3000 E2.3131
;segType:HShell
G1 X207.957 Y132.570 E2.4909 F2039
G0 X207.558 Y133.020 F5400
G1 X205.941 Y131.403 E2.6336 F2039
G0 X205.941 Y132.251 F5400
G1 X207.160 Y133.471 E2.7411 F2039
G0 X206.762 Y133.921 F5400
G1 X205.941 Y133.100 E2.8135 F2039
G0 X205.479 Y133.486 F5400
G1 X206.364 Y134.371 E2.8916 F2039
G0 X205.965 Y134.821 F5400
G1 X204.630 Y133.486 E3.0093 F2039
G0 X204.801 Y133.456 F5400
;segType:Perimeter
G1 X204.801 Y132.256 E3.0841 F1439
G1 X204.801 Y117.801 E3.9856
G1 X209.199 Y117.801 E4.2599
G1 X209.199 Y132.886 E5.2007
G1 X197.699 Y145.886 E6.2831
G1 X197.699 Y152.700 E6.7080
G1 X188.301 Y152.700 E7.2941
G1 X188.301 Y145.886 E7.7190
G1 X176.801 Y132.886 E8.8015
G1 X176.801 Y117.801 E9.7422
G1 X181.199 Y117.801 E10.0166
G1 X181.199 Y132.346 E10.9237
G1 X204.711 Y132.346 E12.3899
G0 F3000 E11.3899
G0 X204.460 Y132.946 F5400
G0 X205.401 Y132.946
G0 X205.401 Y130.696
G0 X205.401 Y130.696
G0 F3000 E12.3899
;segType:Loop
G1 X205.401 Y118.401 E13.1567 F2400
G1 X208.599 Y118.401 E13.3562
G1 X208.599 Y132.659 E14.2453
G1 X197.099 Y145.659 E15.3278
G1 X197.099 Y152.099 E15.7294
G1 X188.901 Y152.099 E16.2407
G1 X188.901 Y145.659 E16.6423
G1 X177.401 Y132.659 E17.7247
G1 X177.401 Y118.401 E18.6139
G1 X180.599 Y118.401 E18.8134
G1 X180.599 Y132.946 E19.7205
G1 X205.401 Y132.946 E21.2672
G1 X205.401 Y130.996 E21.3888
G0 F3000 E20.3888
G0 X205.401 Y130.996 F5400
G0 X205.401 Y132.946
G0 X201.745 Y132.946
G0 X191.101 Y138.625
G0 F3000 E21.3888
;segType:HShell
G1 X185.963 Y133.486 E21.8420 F2039
G0 X185.114 Y133.486 F5400
G1 X190.632 Y139.004 E22.3286 F2039
G0 X191.741 Y139.263 F5400
;segType:Perimeter
G1 X192.640 Y139.233 E22.3847 F1439
G1 X193.000 Y139.198 E22.4073
G1 X193.449 Y139.242 E22.4354
G1 X193.881 Y139.373 E22.4636
G1 X194.279 Y139.586 E22.4917
G1 X194.628 Y139.872 E22.5199
G1 X194.914 Y140.221 E22.5480
G1 X195.127 Y140.619 E22.5761
G1 X195.258 Y141.051 E22.6043
G1 X195.302 Y141.500 E22.6324
G1 X195.258 Y141.949 E22.6606
G1 X195.127 Y142.381 E22.6887
G1 X194.914 Y142.779 E22.7168
G1 X194.628 Y143.128 E22.7450
G1 X194.279 Y143.414 E22.7731
G1 X193.881 Y143.627 E22.8013
G1 X193.449 Y143.758 E22.8294
G1 X193.000 Y143.802 E22.8576
G1 X192.551 Y143.758 E22.8857
G1 X192.119 Y143.627 E22.9139
G1 X191.721 Y143.414 E22.9420
G1 X191.372 Y143.128 E22.9702
G1 X191.086 Y142.779 E22.9983
G1 X190.873 Y142.381 E23.0264
G1 X190.742 Y141.949 E23.0546
G1 X190.698 Y141.500 E23.0827
G1 X190.742 Y141.051 E23.1109
G1 X190.873 Y140.619 E23.1390
G1 X191.086 Y140.221 E23.1671
G1 X191.372 Y139.872 E23.1953
G1 X191.721 Y139.586 E23.2234
G1 X192.119 Y139.373 E23.2516
G1 X192.465 Y139.268 E23.2741
G0 X193.588 Y138.846 F5400
G0 X194.425 Y138.984
;segType:Loop
G1 X194.614 Y139.085 E23.2875 F2400
G1 X195.054 Y139.446 E23.3230
G1 X195.416 Y139.886 E23.3585
G1 X195.684 Y140.389 E23.3940
G1 X195.849 Y140.933 E23.4295
G1 X195.905 Y141.500 E23.4650
G1 X195.849 Y142.067 E23.5005
G1 X195.684 Y142.612 E23.5361
G1 X195.415 Y143.114 E23.5715
G1 X195.054 Y143.554 E23.6070
G1 X194.614 Y143.916 E23.6426
G1 X194.112 Y144.184 E23.6781
G1 X193.567 Y144.349 E23.7136
G1 X193.000 Y144.405 E23.7491
G1 X192.433 Y144.349 E23.7846
G1 X191.888 Y144.184 E23.8202
G1 X191.386 Y143.916 E23.8557
G1 X190.946 Y143.554 E23.8912
G1 X190.585 Y143.114 E23.9267
G1 X190.316 Y142.612 E23.9622
G1 X190.151 Y142.067 E23.9977
G1 X190.095 Y141.500 E24.0332
G1 X190.151 Y140.933 E24.0688
G1 X190.316 Y140.389 E24.1043
G1 X190.584 Y139.886 E24.1398
G1 X190.946 Y139.446 E24.1753
G1 X191.386 Y139.085 E24.2108
G1 X191.888 Y138.816 E24.2463
G1 X192.433 Y138.651 E24.2818
G1 X193.000 Y138.595 E24.3174
G1 X193.567 Y138.651 E24.3529
G1 X194.112 Y138.816 E24.3884
G1 X194.161 Y138.842 E24.3918
G0 F3000 E23.3918
G0 X194.161 Y138.842 F5400
G0 X194.614 Y139.085
G0 X195.054 Y139.446
G0 X195.416 Y139.886
G0 X195.684 Y140.389
G0 X195.849 Y140.933
G0 X195.905 Y141.500
G0 X195.849 Y142.067
G0 X195.684 Y142.612
G0 X195.415 Y143.114
G0 X195.054 Y143.554
G0 X194.738 Y143.814
G0 X195.314 Y148.778
G0 F3000 E24.3918
;segType:HShell
G1 X196.559 Y150.022 E24.5016 F2039
G0 X196.559 Y150.871 F5400
G1 X195.021 Y149.333 E24.6372 F2039
G0 X194.650 Y149.810 F5400
G1 X196.399 Y151.559 E24.7915 F2039
G0 X195.550 Y151.559 F5400
G1 X194.141 Y150.150 E24.9158 F2039
G0 X193.510 Y150.367 F5400
G1 X194.702 Y151.559 E25.0209 F2039
G0 X193.853 Y151.559 F5400
G1 X192.704 Y150.410 E25.1223 F2039
G0 X192.425 Y149.157 F5400
;segType:Perimeter
G1 X192.076 Y148.924 E25.1485 F1439
G1 X191.793 Y148.500 E25.1802
G1 X191.694 Y148.000 E25.2120
G1 X191.793 Y147.500 E25.2438
G1 X192.076 Y147.076 E25.2756
G1 X192.500 Y146.793 E25.3074
G1 X193.000 Y146.693 E25.3392
G1 X193.500 Y146.793 E25.3710
G1 X193.924 Y147.076 E25.4028
G1 X194.207 Y147.500 E25.4346
G1 X194.306 Y148.000 E25.4664
G1 X194.207 Y148.500 E25.4981
G1 X193.924 Y148.924 E25.5299
G1 X193.500 Y149.207 E25.5617
G1 X193.000 Y149.306 E25.5935
G1 X192.588 Y149.224 E25.6197
G0 F3000 E24.6197
G0 X193.354 Y149.848 F5400
G0 X193.000 Y149.918
G0 X192.266 Y149.772
G0 X191.644 Y149.356
G0 X191.228 Y148.734
G0 X191.082 Y148.000
G0 X191.082 Y147.998
G0 X191.082 Y147.998
G0 F3000 E25.6197
;segType:Loop
G1 X191.228 Y147.266 E25.6662 F2400
G1 X191.643 Y146.644 E25.7129
G1 X192.266 Y146.228 E25.7596
G1 X193.000 Y146.082 E25.8063
G1 X193.734 Y146.228 E25.8530
G1 X194.357 Y146.644 E25.8997
G1 X194.772 Y147.266 E25.9464
G1 X194.918 Y148.000 E25.9930
G1 X194.772 Y148.734 E26.0397
G1 X194.356 Y149.356 E26.0864
G1 X193.734 Y149.772 E26.1330
G1 X193.000 Y149.918 E26.1797
G1 X192.266 Y149.772 E26.2264
G1 X191.644 Y149.356 E26.2731
G1 X191.228 Y148.734 E26.3197
G1 X191.140 Y148.293 E26.3478
G0 X189.441 Y150.541 F5400
;segType:HShell
G1 X190.459 Y151.559 E26.4376 F2039
G0 X191.308 Y151.559 F5400
G1 X189.441 Y149.693 E26.6022 F2039
G0 X189.441 Y148.844 F5400
G1 X192.156 Y151.559 E26.8417 F2039
G0 X193.005 Y151.559 F5400
G1 X189.441 Y147.995 E27.1560 F2039
G0 X189.441 Y147.147 F5400
G1 X190.590 Y148.296 E27.2574 F2039
G0 X190.632 Y147.490 F5400
G1 X189.441 Y146.298 E27.3624 F2039
G0 X189.408 Y145.417 F5400
G1 X190.850 Y146.859 E27.4896 F2039
G0 X191.190 Y146.350 F5400
G1 X182.902 Y138.062 E28.2206 F2039
G0 X177.941 Y132.253 F5400
G1 X191.667 Y145.978 E29.4311 F2039
G0 X192.222 Y145.685 F5400
G1 X177.941 Y131.404 E30.6906 F2039
G0 X177.941 Y130.556 F5400
G1 X180.059 Y132.674 E30.8775 F2039
G0 X180.059 Y131.826 F5400
G1 X177.941 Y129.707 E31.0643 F2039
G0 X177.941 Y128.859 F5400
G1 X180.059 Y130.977 E31.2511 F2039
G0 X180.059 Y130.128 F5400
G1 X177.941 Y128.010 E31.4380 F2039
G0 X177.941 Y127.162 F5400
G1 X180.059 Y129.280 E31.6248 F2039
G0 X180.059 Y128.431 F5400
G1 X177.941 Y126.313 E31.8116 F2039
G0 X177.941 Y125.464 F5400
G1 X180.059 Y127.583 E31.9985 F2039
G0 X180.059 Y126.734 F5400
G1 X177.941 Y124.616 E32.1853 F2039
G0 X177.941 Y123.767 F5400
G1 X180.059 Y125.886 E32.3722 F2039
G0 X180.059 Y125.037 F5400
G1 X177.941 Y122.919 E32.5590 F2039
G0 X177.941 Y122.070 F5400
G1 X180.059 Y124.189 E32.7458 F2039
G0 X180.059 Y123.340 F5400
G1 X177.941 Y121.222 E32.9327 F2039
G0 X177.941 Y120.373 F5400
G1 X180.059 Y122.492 E33.1195 F2039
G0 X180.059 Y121.643 F5400
G1 X177.941 Y119.525 E33.3063 F2039
G0 X178.205 Y118.941 F5400
G1 X180.059 Y120.795 E33.4698 F2039
G0 X180.059 Y119.946 F5400
G1 X179.054 Y118.941 E33.5585 F2039
G0 X180.872 Y133.486 F5400
G1 X189.645 Y142.260 E34.3323 F2039
G0 X189.568 Y141.335 F5400
G1 X181.720 Y133.486 E35.0244 F2039
G0 X182.569 Y133.486 F5400
G1 X189.686 Y140.604 E35.6522 F2039
G0 X189.918 Y139.987 F5400
G1 X183.417 Y133.486 E36.2255 F2039
G0 X184.266 Y133.486 F5400
G1 X190.237 Y139.458 E36.7522 F2039
G0 X191.654 Y138.329 F5400
G1 X186.811 Y133.486 E37.1793 F2039
G0 X187.660 Y133.486 F5400
G1 X192.300 Y138.127 E37.5885 F2039
G0 X193.082 Y138.060 F5400
G1 X188.508 Y133.486 E37.9919 F2039
G0 X189.357 Y133.486 F5400
G1 X194.127 Y138.256 E38.4126 F2039
G0 F3000 E37.4126
G0 X193.577 Y138.654 F5400
G0 X201.463 Y132.946
G0 X201.463 Y132.946
G0 X205.401 Y132.946
G0 X205.401 Y130.097
G0 X205.941 Y129.706
G0 F3000 E38.4126
G1 X208.059 Y131.824 E38.5994 F2039
G0 X208.059 Y130.975 F5400
G1 X205.941 Y128.857 E38.7862 F2039
G0 X205.941 Y128.009 F5400
G1 X208.059 Y130.127 E38.9731 F2039
G0 X208.059 Y129.278 F5400
G1 X205.941 Y127.160 E39.1599 F2039
G0 X205.941 Y126.311 F5400
G1 X208.059 Y128.430 E39.3467 F2039
G0 X208.059 Y127.581 F5400
G1 X205.941 Y125.463 E39.5336 F2039
G0 X205.941 Y124.614 F5400
G1 X208.059 Y126.733 E39.7204 F2039
G0 X208.059 Y125.884 F5400
G1 X205.941 Y123.766 E39.9072 F2039
G0 X205.941 Y122.917 F5400
G1 X208.059 Y125.036 E40.0941 F2039
G0 X208.059 Y124.187 F5400
G1 X205.941 Y122.069 E40.2809 F2039
G0 X205.941 Y121.220 F5400
G1 X208.059 Y123.339 E40.4677 F2039
G0 X208.059 Y122.490 F5400
G1 X205.941 Y120.372 E40.6546 F2039
G0 X205.941 Y119.523 F5400
G1 X208.059 Y121.642 E40.8414 F2039
G0 X208.059 Y120.793 F5400
G1 X206.207 Y118.941 E41.0048 F2039
G0 X207.055 Y118.941 F5400
G1 X208.059 Y119.945 E41.0933 F2039
G0 F3000 E40.0933
G0 X205.401 Y128.362 F5400
G0 X205.401 Y132.946
G0 X203.952 Y132.946
G0 X203.782 Y133.486
G0 F3000 E41.0933
G1 X205.567 Y135.272 E41.2508 F2039
G0 X205.169 Y135.722 F5400
G1 X202.933 Y133.486 E41.4479 F2039
G0 X202.085 Y133.486 F5400
G1 X204.770 Y136.172 E41.6848 F2039
G0 X204.372 Y136.622 F5400
G1 X201.236 Y133.486 E41.9613 F2039
G0 X200.388 Y133.486 F5400
G1 X203.974 Y137.072 E42.2776 F2039
G0 X203.576 Y137.523 F5400
G1 X199.539 Y133.486 E42.6336 F2039
G0 X198.691 Y133.486 F5400
G1 X203.177 Y137.973 E43.0293 F2039
G0 X202.779 Y138.423 F5400
G1 X197.842 Y133.486 E43.4647 F2039
G0 X196.994 Y133.486 F5400
G1 X202.381 Y138.873 E43.9398 F2039
G0 X201.982 Y139.324 F5400
G1 X196.145 Y133.486 E44.4546 F2039
G0 X195.297 Y133.486 F5400
G1 X201.584 Y139.774 E45.0091 F2039
G0 X201.186 Y140.224 F5400
G1 X194.448 Y133.486 E45.6033 F2039
G0 X193.599 Y133.486 F5400
G1 X200.787 Y140.674 E46.2373 F2039
G0 X200.389 Y141.125 F5400
G1 X192.751 Y133.486 E46.9109 F2039
G0 X191.902 Y133.486 F5400
G1 X199.991 Y141.575 E47.6243 F2039
G0 X199.593 Y142.025 F5400
G1 X191.054 Y133.486 E48.3774 F2039
G0 X190.205 Y133.486 F5400
G1 X199.194 Y142.475 E49.1701 F2039
G0 X198.796 Y142.926 F5400
G1 X196.244 Y140.373 E49.3952 F2039
G0 X196.440 Y141.418 F5400
G1 X198.398 Y143.376 E49.5679 F2039
G0 X197.999 Y143.826 F5400
G1 X196.373 Y142.200 E49.7113 F2039
G0 X196.171 Y142.846 F5400
G1 X197.601 Y144.276 E49.8375 F2039
G0 X197.203 Y144.727 F5400
G1 X195.875 Y143.399 E49.9546 F2039
G0 X195.496 Y143.868 F5400
G1 X196.805 Y145.177 E50.0700 F2039
G0 X196.559 Y145.780 F5400
G1 X195.042 Y144.263 E50.2038 F2039
G0 X194.513 Y144.582 F5400
G1 X196.559 Y146.628 E50.3842 F2039
G0 X196.559 Y147.477 F5400
G1 X193.896 Y144.814 E50.6191 F2039
G0 X194.057 Y145.399 F5400
G1 X192.585 Y145.200 E50.6898 F2039
G0 X195.265 Y147.031 F5400
G1 X196.559 Y148.325 E50.8040 F2039
G0 X196.559 Y149.174 F5400
G1 X195.455 Y148.070 E50.9013 F2039
G0 F3000 E49.9013
G0 X200.900 Y129.700 F5400
G0 F3000 E50.9013
;segType:Support
G1 X202.700 Y129.700 E50.9968 F3600
G1 X202.700 Y127.900 E51.0922
G1 X200.900 Y127.900 E51.1876
G0 X184.700 Y127.900 F5400
G1 X182.900 Y127.900 E51.2830 F3600
G1 X184.700 Y129.700 E51.4179
G1 X182.900 Y129.700 E51.5134
G0 F3000 E50.5134
G0 X175.700 Y115.300 F5400
G0 F3000 E51.5134
G1 X181.100 Y115.300 E51.7996 F3600
G1 X181.100 Y113.500 E51.8950
G1 X175.700 Y113.500 E52.1813
G0 X170.300 Y113.500 F5400
G1 X164.900 Y113.500 E52.4675 F3600
G1 X164.900 Y115.300 E52.5629
G1 X170.300 Y115.300 E52.8492
G0 F3000 E51.8492
G0 X165.900 Y124.300 F5400
G0 F3000 E52.8492
G1 X164.900 Y124.300 E52.9022 F3600
G1 X165.900 Y126.100 E53.0113
G1 X164.900 Y126.100 E53.0643
G1 X164.900 Y127.900 E53.1597
G1 X165.900 Y127.900 E53.2127
G1 X164.900 Y129.700 E53.3219
G1 X165.900 Y129.700 E53.3749
G0 F3000 E52.3749
G0 X167.941 Y130.738 F5400
G0 F3000 E53.3749
;segType:HShell
G1 X169.870 Y132.668 E53.5451 F2039
G0 X169.472 Y133.118 F5400
G1 X167.941 Y131.586 E53.6801 F2039
G0 X167.941 Y132.435 F5400
G1 X169.074 Y133.568 E53.7801 F2039
G0 X168.676 Y134.018 F5400
G1 X167.941 Y133.283 E53.8449 F2039
G0 X167.295 Y133.486 F5400
G1 X168.277 Y134.468 E53.9315 F2039
G0 X167.879 Y134.919 F5400
G1 X166.447 Y133.486 E54.0578 F2039
G0 X166.801 Y133.456 F5400
;segType:Perimeter
G1 X166.801 Y132.256 E54.1326 F1439
G1 X166.801 Y117.801 E55.0341
G1 X171.199 Y117.801 E55.3085
G1 X171.199 Y132.886 E56.2492
G1 X159.699 Y145.886 E57.3316
G1 X159.699 Y152.700 E57.7565
G1 X150.301 Y152.700 E58.3427
G1 X150.301 Y145.886 E58.7676
G1 X138.801 Y132.886 E59.8500
G1 X138.801 Y117.801 E60.7907
G1 X143.199 Y117.801 E61.0651
G1 X143.199 Y132.346 E61.9722
G1 X166.711 Y132.346 E63.4384
G0 F3000 E62.4384
G0 X166.460 Y132.946 F5400
G0 X167.401 Y132.946
G0 X167.401 Y130.696
G0 X167.401 Y130.696
G0 F3000 E63.4384
;segType:Loop
G1 X167.401 Y118.401 E64.2052 F2400
G1 X170.599 Y118.401 E64.4047
G1 X170.599 Y132.659 E65.2938
G1 X159.099 Y145.659 E66.3763
G1 X159.099 Y152.099 E66.7779
G1 X150.901 Y152.099 E67.2892
G1 X150.901 Y145.659 E67.6909
G1 X139.401 Y132.659 E68.7733
G1 X139.401 Y118.401 E69.6624
G1 X142.599 Y118.401 E69.8619
G1 X142.599 Y132.946 E70.7690
G1 X167.401 Y132.946 E72.3157
G1 X167.401 Y130.996 E72.4373
G0 F3000 E71.4373
G0 X167.401 Y130.996 F5400
G0 X167.401 Y132.946
G0 X166.271 Y132.946
G0 X159.913 Y143.924
G0 F3000 E72.4373
;segType:HShell
G1 X158.330 Y142.341 E72.5769 F2039
G0 X158.107 Y142.966 F5400
G1 X159.515 Y144.374 E72.7011 F2039
G0 X159.117 Y144.824 F5400
G1 X157.795 Y143.503 E72.8176 F2039
G0 X157.407 Y143.963 F5400
G1 X158.718 Y145.274 E72.9332 F2039
G0 X158.559 Y145.964 F5400
G1 X156.941 Y144.346 E73.0759 F2039
G0 X156.559 Y143.727 F5400
;segType:Perimeter
G1 X155.360 Y143.767 E73.1508 F1439
G1 X155.000 Y143.802 E73.1733
G1 X154.551 Y143.758 E73.2014
G1 X154.119 Y143.627 E73.2296
G1 X153.721 Y143.414 E73.2577
G1 X153.372 Y143.128 E73.2859
G1 X153.086 Y142.779 E73.3140
G1 X152.873 Y142.381 E73.3421
G1 X152.742 Y141.949 E73.3703
G1 X152.698 Y141.500 E73.3984
G1 X152.742 Y141.051 E73.4266
G1 X152.873 Y140.619 E73.4547
G1 X153.086 Y140.221 E73.4829
G1 X153.372 Y139.872 E73.5110
G1 X153.721 Y139.586 E73.5391
G1 X154.119 Y139.373 E73.5673
G1 X154.551 Y139.242 E73.5954
G1 X155.000 Y139.198 E73.6236
G1 X155.449 Y139.242 E73.6517
G1 X155.881 Y139.373 E73.6799
G1 X156.279 Y139.586 E73.7080
G1 X156.628 Y139.872 E73.7362
G1 X156.914 Y140.221 E73.7643
G1 X157.127 Y140.619 E73.7925
G1 X157.258 Y141.051 E73.8206
G1 X157.302 Y141.500 E73.8487
G1 X157.258 Y141.949 E73.8769
G1 X157.127 Y142.381 E73.9050
G1 X156.914 Y142.779 E73.9331
G1 X156.628 Y143.128 E73.9613
G1 X156.279 Y143.414 E73.9894
G1 X155.881 Y143.627 E74.0176
G1 X155.535 Y143.732 E74.0401
G0 X154.412 Y144.154 F5400
G0 X153.575 Y144.017
;segType:Loop
G1 X153.386 Y143.916 E74.0535 F2400
G1 X152.946 Y143.554 E74.0890
G1 X152.585 Y143.114 E74.1245
G1 X152.316 Y142.612 E74.1600
G1 X152.151 Y142.067 E74.1955
G1 X152.095 Y141.500 E74.2311
G1 X152.151 Y140.933 E74.2666
G1 X152.316 Y140.389 E74.3021
G1 X152.584 Y139.886 E74.3376
G1 X152.946 Y139.446 E74.3731
G1 X153.386 Y139.085 E74.4086
G1 X153.888 Y138.816 E74.4441
G1 X154.433 Y138.651 E74.4797
G1 X155.000 Y138.595 E74.5152
G1 X155.567 Y138.651 E74.5507
G1 X156.112 Y138.816 E74.5862
G1 X156.614 Y139.085 E74.6217
G1 X157.054 Y139.446 E74.6572
G1 X157.416 Y139.886 E74.6928
G1 X157.684 Y140.389 E74.7283
G1 X157.849 Y140.933 E74.7637
G1 X157.905 Y141.500 E74.7993
G1 X157.849 Y142.067 E74.8348
G1 X157.684 Y142.612 E74.8703
G1 X157.415 Y143.114 E74.9058
G1 X157.054 Y143.554 E74.9413
G1 X156.614 Y143.916 E74.9768
G1 X156.112 Y144.184 E75.0124
G1 X155.567 Y144.349 E75.0479
G1 X155.000 Y144.405 E75.0834
G1 X154.433 Y144.349 E75.1189
G1 X153.888 Y144.184 E75.1544
G1 X153.840 Y144.158 E75.1578
G0 X153.977 Y144.775 F5400
;segType:HShell
G1 X154.777 Y145.575 E75.2284 F2039
G0 X156.393 Y144.646 F5400
G1 X158.559 Y146.812 E75.4194 F2039
G0 X158.559 Y147.661 F5400
G1 X155.755 Y144.857 E75.6667 F2039
G0 X154.997 Y144.947 F5400
G1 X155.725 Y145.675 E75.7309 F2039
G0 X155.575 Y146.843 F5400
;segType:Perimeter
G1 X155.924 Y147.076 E75.7571 F1439
G1 X156.207 Y147.500 E75.7889
G1 X156.306 Y148.000 E75.8207
G1 X156.207 Y148.500 E75.8524
G1 X155.924 Y148.924 E75.8842
G1 X155.500 Y149.207 E75.9160
G1 X155.000 Y149.306 E75.9478
G1 X154.500 Y149.207 E75.9796
G1 X154.076 Y148.924 E76.0114
G1 X153.793 Y148.500 E76.0432
G1 X153.694 Y148.000 E76.0750
G1 X153.793 Y147.500 E76.1067
G1 X154.076 Y147.076 E76.1385
G1 X154.500 Y146.793 E76.1703
G1 X155.000 Y146.693 E76.2021
G1 X155.412 Y146.775 E76.2283
G0 X155.412 Y146.775 F5400
G0 X155.500 Y146.793
G0 X155.924 Y147.076
G0 X156.207 Y147.500
G0 X156.306 Y148.000
G0 X156.297 Y148.049
G0 X156.772 Y148.734
;segType:Loop
G1 X156.356 Y149.356 E76.2750 F2400
G1 X155.734 Y149.772 E76.3217
G1 X155.000 Y149.918 E76.3684
G1 X154.266 Y149.772 E76.4150
G1 X153.644 Y149.356 E76.4617
G1 X153.228 Y148.734 E76.5084
G1 X153.082 Y148.000 E76.5550
G1 X153.228 Y147.266 E76.6017
G1 X153.643 Y146.644 E76.6484
G1 X154.266 Y146.228 E76.6951
G1 X155.000 Y146.082 E76.7417
G1 X155.734 Y146.228 E76.7884
G1 X156.357 Y146.644 E76.8351
G1 X156.772 Y147.266 E76.8818
G1 X156.918 Y148.000 E76.9285
G1 X156.772 Y148.734 E76.9751
G0 X154.475 Y150.364 F5400
;segType:HShell
G1 X155.670 Y151.559 E77.0805 F2039
G0 X156.518 Y151.559 F5400
G1 X155.357 Y150.398 E77.1830 F2039
G0 X156.031 Y150.224 F5400
G1 X157.367 Y151.559 E77.3008 F2039
G0 X158.215 Y151.559 F5400
G1 X156.539 Y149.884 E77.4485 F2039
G0 X156.948 Y149.443 F5400
G1 X158.559 Y151.055 E77.5906 F2039
G0 X158.559 Y150.206 F5400
G1 X157.284 Y148.931 E77.7031 F2039
G0 X157.425 Y148.223 F5400
G1 X158.559 Y149.358 E77.8032 F2039
G0 X158.559 Y148.509 F5400
G1 X157.325 Y147.275 E77.9120 F2039
G0 X160.311 Y143.473 F5400
G1 X158.438 Y141.600 E78.0772 F2039
G0 X158.324 Y140.637 F5400
G1 X160.710 Y143.023 E78.2877 F2039
G0 X161.108 Y142.573 F5400
G1 X152.022 Y133.486 E79.0891 F2039
G0 X152.870 Y133.486 F5400
G1 X161.506 Y142.123 E79.8507 F2039
G0 X161.905 Y141.672 F5400
G1 X153.719 Y133.486 E80.5727 F2039
G0 X154.567 Y133.486 F5400
G1 X162.303 Y141.222 E81.2549 F2039
G0 X162.701 Y140.772 F5400
G1 X155.416 Y133.486 E81.8975 F2039
G0 X156.264 Y133.486 F5400
G1 X163.099 Y140.322 E82.5003 F2039
G0 X163.498 Y139.871 F5400
G1 X157.113 Y133.486 E83.0634 F2039
G0 X157.961 Y133.486 F5400
G1 X163.896 Y139.421 E83.5868 F2039
G0 X164.294 Y138.971 F5400
G1 X158.810 Y133.486 E84.0705 F2039
G0 X159.658 Y133.486 F5400
G1 X164.693 Y138.521 E84.5145 F2039
G0 X165.091 Y138.070 F5400
G1 X160.507 Y133.486 E84.9188 F2039
G0 X161.355 Y133.486 F5400
G1 X165.489 Y137.620 E85.2834 F2039
G0 X165.888 Y137.170 F5400
G1 X162.204 Y133.486 E85.6083 F2039
G0 X163.052 Y133.486 F5400
G1 X166.286 Y136.720 E85.8934 F2039
G0 X166.684 Y136.269 F5400
G1 X163.901 Y133.486 E86.1389 F2039
G0 X164.750 Y133.486 F5400
G1 X167.082 Y135.819 E86.3446 F2039
G0 X167.481 Y135.369 F5400
G1 X165.598 Y133.486 E86.5107 F2039
G0 F3000 E85.5107
G0 X165.950 Y132.946 F5400
G0 X167.401 Y132.946
G0 X167.401 Y130.719
G0 X167.941 Y129.889
G0 F3000 E86.5107
G1 X170.059 Y132.008 E86.6975 F2039
G0 X170.059 Y131.159 F5400
G1 X167.941 Y129.041 E86.8843 F2039
G0 X167.941 Y128.192 F5400
G1 X170.059 Y130.311 E87.0712 F2039
G0 X170.059 Y129.462 F5400
G1 X167.941 Y127.344 E87.2580 F2039
G0 X167.941 Y126.495 F5400
G1 X170.059 Y128.614 E87.4448 F2039
G0 X170.059 Y127.765 F5400
G1 X167.941 Y125.647 E87.6317 F2039
G0 X167.941 Y124.798 F5400
G1 X170.059 Y126.917 E87.8185 F2039
G0 X170.059 Y126.068 F5400
G1 X167.941 Y123.950 E88.0054 F2039
G0 X167.941 Y123.101 F5400
G1 X170.059 Y125.220 E88.1922 F2039
G0 X170.059 Y124.371 F5400
G1 X167.941 Y122.253 E88.3790 F2039
G0 X167.941 Y121.404 F5400
G1 X170.059 Y123.523 E88.5659 F2039
G0 X170.059 Y122.674 F5400
G1 X167.941 Y120.556 E88.7527 F2039
G0 X167.941 Y119.707 F5400
G1 X170.059 Y121.825 E88.9395 F2039
G0 X170.059 Y120.977 F5400
G1 X168.023 Y118.941 E89.1191 F2039
G0 X168.872 Y118.941 F5400
G1 X170.059 Y120.128 E89.2239 F2039
G0 F3000 E88.2239
G0 X170.599 Y119.442 F5400
G0 X167.401 Y123.508
G0 X167.401 Y123.508
G0 X167.401 Y132.946
G0 X159.976 Y132.946
G0 X159.976 Y132.946
G0 X155.495 Y138.644
G0 X155.863 Y138.176
G0 F3000 E89.2239
G1 X151.173 Y133.486 E89.6374 F2039
G0 X150.325 Y133.486 F5400
G1 X154.900 Y138.062 E90.0410 F2039
G0 X154.159 Y138.169 F5400
G1 X149.476 Y133.486 E90.4540 F2039
G0 X148.627 Y133.486 F5400
G1 X153.534 Y138.393 E90.8867 F2039
G0 X152.997 Y138.705 F5400
G1 X147.779 Y133.486 E91.3470 F2039
G0 X146.930 Y133.486 F5400
G1 X152.537 Y139.093 E91.8414 F2039
G0 X152.154 Y139.559 F5400
G1 X146.082 Y133.486 E92.3770 F2039
G0 X145.233 Y133.486 F5400
G1 X151.854 Y140.107 E92.9609 F2039
G0 X151.644 Y140.745 F5400
G1 X144.385 Y133.486 E93.6011 F2039
G0 X143.536 Y133.486 F5400
G1 X151.552 Y141.502 E94.3080 F2039
G0 X151.725 Y142.524 F5400
G1 X142.688 Y133.486 E95.1051 F2039
G0 X140.870 Y118.941 F5400
G1 X142.059 Y120.130 E95.2100 F2039
G0 X142.059 Y120.978 F5400
G1 X140.022 Y118.941 E95.3897 F2039
G0 X139.941 Y119.709 F5400
G1 X142.059 Y121.827 E95.5765 F2039
G0 X142.059 Y122.676 F5400
G1 X139.941 Y120.557 E95.7634 F2039
G0 X139.941 Y121.406 F5400
G1 X142.059 Y123.524 E95.9502 F2039
G0 X142.059 Y124.373 F5400
G1 X139.941 Y122.254 E96.1370 F2039
G0 X139.941 Y123.103 F5400
G1 X142.059 Y125.221 E96.3239 F2039
G0 X142.059 Y126.070 F5400
G1 X139.941 Y123.951 E96.5107 F2039
G0 X139.941 Y124.800 F5400
G1 X142.059 Y126.918 E96.6975 F2039
G0 X142.059 Y127.767 F5400
G1 X139.941 Y125.648 E96.8844 F2039
G0 X139.941 Y126.497 F5400
G1 X142.059 Y128.615 E97.0712 F2039
G0 X142.059 Y129.464 F5400
G1 X139.941 Y127.345 E97.2580 F2039
G0 X139.941 Y128.194 F5400
G1 X142.059 Y130.312 E97.4449 F2039
G0 X142.059 Y131.161 F5400
G1 X139.941 Y129.042 E97.6317 F2039
G0 X139.941 Y129.891 F5400
G1 X142.059 Y132.009 E97.8186 F2039
G0 X142.059 Y132.858 F5400
G1 X139.941 Y130.739 E98.0054 F2039
G0 X139.941 Y131.588 F5400
G1 X154.069 Y145.716 E99.2514 F2039
G0 X153.556 Y146.052 F5400
G1 X139.941 Y132.436 E100.4522 F2039
G0 X146.311 Y139.655 F5400
G1 X153.116 Y146.460 E101.0524 F2039
G0 X152.777 Y146.969 F5400
G1 X151.441 Y145.634 E101.1702 F2039
G0 X151.441 Y146.482 F5400
G1 X152.602 Y147.643 E101.2726 F2039
G0 X152.635 Y148.525 F5400
G1 X151.441 Y147.331 E101.3779 F2039
G0 X151.441 Y148.179 F5400
G1 X154.821 Y151.559 E101.6760 F2039
G0 X153.972 Y151.559 F5400
G1 X151.441 Y149.028 E101.8993 F2039
G0 X151.441 Y149.876 F5400
G1 X153.124 Y151.559 E102.0477 F2039
G0 X152.275 Y151.559 F5400
G1 X151.441 Y150.725 E102.1213 F2039
G0 F3000 E101.1213
G0 X150.901 Y148.934 F5400
G0 X150.901 Y145.659
G0 X149.402 Y143.965
G0 X149.402 Y143.965
G0 X146.079 Y132.946
G0 X145.100 Y129.700
G0 F3000 E102.1213
;segType:Support
G1 X144.100 Y129.700 E102.1743 F3600
G1 X144.100 Y127.900 E102.2697
G1 X145.100 Y127.900 E102.3227
G1 X144.100 Y126.100 E102.4319
G1 X145.100 Y126.100 E102.4849
G1 X145.100 Y124.300 E102.5803
G1 X144.100 Y124.300 E102.6333
G0 F3000 E101.6333
G0 X139.700 Y115.300 F5400
G0 F3000 E102.6333
G1 X145.100 Y115.300 E102.9195 F3600
G1 X145.100 Y113.500 E103.0149
G1 X139.700 Y113.500 E103.3012
G1 X139.700 Y111.700 E103.3966
G1 X141.500 Y111.700 E103.4920
G1 X141.500 Y109.900 E103.5874
G1 X139.700 Y109.900 E103.6828
G1 X139.700 Y108.100 E103.7782
G1 X141.500 Y108.100 E103.8736
G1 X141.500 Y106.300 E103.9691
G1 X139.700 Y106.300 E104.0645
G1 X141.500 Y104.500 E104.1994
G1 X139.700 Y104.500 E104.2948
G1 X139.700 Y102.700 E104.3902
G1 X141.500 Y102.700 E104.4857
G1 X141.500 Y100.900 E104.5811
G1 X139.700 Y100.900 E104.6765
G1 X139.700 Y99.100 E104.7719
G1 X141.500 Y99.100 E104.8673
G0 X168.500 Y91.900 F5400
G1 X170.300 Y91.900 E104.9627 F3600
G1 X170.300 Y93.700 E105.0581
G1 X168.500 Y93.700 E105.1535
G1 X168.500 Y95.500 E105.2490
G1 X170.300 Y95.500 E105.3444
G1 X170.300 Y97.300 E105.4398
G1 X168.500 Y97.300 E105.5352
G1 X168.500 Y99.100 E105.6306
G1 X170.300 Y99.100 E105.7260
G1 X170.300 Y100.900 E105.8214
G1 X168.500 Y100.900 E105.9169
G1 X168.500 Y102.700 E106.0123
G1 X170.300 Y102.700 E106.1077
G1 X170.300 Y104.500 E106.2031
G1 X168.500 Y104.500 E106.2985
G1 X168.500 Y106.300 E106.3939
G1 X170.300 Y106.300 E106.4893
G1 X170.300 Y108.100 E106.5847
G1 X168.500 Y108.100 E106.6802
G1 X170.300 Y109.900 E106.8151
G1 X168.500 Y109.900 E106.9105
G1 X168.500 Y111.700 E107.0059
G1 X170.300 Y111.700 E107.1013
G0 X175.700 Y111.700 F5400
G1 X177.500 Y111.700 E107.1968 F3600
G1 X177.500 Y109.900 E107.2922
G1 X175.700 Y109.900 E107.3876
G1 X177.500 Y108.100 E107.5225
G1 X175.700 Y108.100 E107.6179
G1 X175.700 Y106.300 E107.7133
G1 X177.500 Y106.300 E107.8088
G1 X175.700 Y104.500 E107.9437
G1 X177.500 Y104.500 E108.0391
G1 X177.500 Y102.700 E108.1345
G1 X175.700 Y102.700 E108.2299
G1 X175.700 Y100.900 E108.3254
G1 X177.500 Y100.900 E108.4208
G1 X177.500 Y99.100 E108.5162
G1 X175.700 Y99.100 E108.6116
G1 X175.700 Y97.300 E108.7070
G1 X177.500 Y97.300 E108.8024
G1 X177.500 Y95.500 E108.8978
G1 X175.700 Y95.500 E108.9932
G1 X175.700 Y93.700 E109.0887
G1 X177.500 Y93.700 E109.1841
G1 X175.700 Y91.900 E109.3190
G1 X177.500 Y91.900 E109.4144
G1 X177.500 Y90.100 E109.5098
G1 X175.700 Y90.100 E109.6053
G0 X170.300 Y90.100 F5400
G1 X168.500 Y90.100 E109.7007 F3600
G1 X168.500 Y88.300 E109.7961
G1 X170.300 Y88.300 E109.8915
G1 X170.300 Y86.500 E109.9869
G1 X139.700 Y86.500 E111.6090
G1 X139.700 Y88.300 E111.7044
G1 X141.500 Y88.300 E111.7998
G1 X141.500 Y90.100 E111.8952
G1 X139.700 Y90.100 E111.9906
G1 X139.700 Y91.900 E112.0860
G1 X141.500 Y91.900 E112.1814
G0 X141.500 Y95.500 F5400
G1 X139.700 Y95.500 E112.2769 F3600
G1 X139.700 Y97.300 E112.3723
G1 X141.500 Y97.300 E112.4677
G0 X141.500 Y93.700 F5400
G1 X139.700 Y93.700 E112.5631 F3600
G0 X139.700 Y84.700 F5400
G1 X170.300 Y84.700 E114.1851 F3600
G1 X169.400 Y82.900 E114.2918
G1 X140.600 Y82.900 E115.8184
G1 X140.600 Y81.100 E115.9139
G1 X169.400 Y81.100 E117.4405
G1 X169.400 Y79.300 E117.5359
G1 X140.600 Y79.300 E119.0625
G1 X140.600 Y77.500 E119.1579
G1 X169.400 Y77.500 E120.6845
G1 X169.400 Y75.700 E120.7799
G1 X140.600 Y75.700 E122.3065
G0 F3000 E121.3065
G0 X144.864 Y66.932 F5400
G0 F3000 E122.3065
;segType:HShell
G1 X142.540 Y64.608 E122.5115 F2039
G0 X142.142 Y65.058 F5400
G1 X144.016 Y66.932 E122.6768 F2039
G0 X143.167 Y66.932 F5400
G1 X141.743 Y65.508 E122.8024 F2039
G0 X141.345 Y65.958 F5400
G1 X142.319 Y66.932 E122.8883 F2039
G0 X141.470 Y66.932 F5400
G1 X140.947 Y66.409 E122.9344 F2039
G0 X139.700 Y66.962 F5400
;segType:Perimeter
G1 X139.700 Y68.162 E123.0093 F1439
G1 X139.700 Y82.199 E123.8847
G1 X138.801 Y82.199 E123.9407
G1 X138.801 Y67.114 E124.8815
G1 X150.301 Y54.114 E125.9639
G1 X150.301 Y47.301 E126.3888
G1 X159.699 Y47.301 E126.9749
G1 X159.699 Y54.114 E127.3998
G1 X171.199 Y67.114 E128.4822
G1 X171.199 Y82.199 E129.4230
G1 X170.301 Y82.199 E129.4791
G1 X170.301 Y68.072 E130.3601
G1 X139.790 Y68.072 E132.2628
G0 X139.623 Y67.382 F5400
G0 X139.568 Y67.152
G0 X139.623 Y67.382
;segType:Loop
G1 X139.571 Y67.343 E132.2686 F2400
G1 X139.400 Y67.420 E132.2824
G1 X139.401 Y67.341 E132.2873
G1 X150.901 Y54.341 E133.3697
G1 X150.901 Y47.901 E133.7714
G1 X159.099 Y47.901 E134.2826
G1 X159.099 Y54.341 E134.6843
G1 X170.404 Y67.120 E135.7483
G0 X170.425 Y67.342 F5400
G0 X170.592 Y67.417
G1 X170.600 Y67.420 E135.7489 F2400
G1 X170.429 Y67.343 E135.7657
G1 X170.257 Y67.472 E135.7791
G1 X139.893 Y67.472 E137.6727
G0 F3000 E136.6727
G0 X155.140 Y61.934 F5400
G0 F3000 E137.6727
;segType:HShell
G1 X160.138 Y66.932 E138.1135 F2039
G0 X160.986 Y66.932 F5400
G1 X155.874 Y61.820 E138.5644 F2039
G0 X155.059 Y61.218 F5400
;segType:Perimeter
G1 X154.040 Y60.584 E138.6392 F1439
G1 X153.721 Y60.414 E138.6617
G1 X153.372 Y60.128 E138.6899
G1 X153.086 Y59.779 E138.7180
G1 X152.873 Y59.381 E138.7462
G1 X152.742 Y58.949 E138.7743
G1 X152.698 Y58.500 E138.8024
G1 X152.742 Y58.051 E138.8306
G1 X152.873 Y57.619 E138.8587
G1 X153.086 Y57.221 E138.8869
G1 X153.372 Y56.872 E138.9150
G1 X153.721 Y56.586 E138.9432
G1 X154.119 Y56.373 E138.9713
G1 X154.551 Y56.242 E138.9994
G1 X155.000 Y56.198 E139.0276
G1 X155.449 Y56.242 E139.0557
G1 X155.881 Y56.373 E139.0839
G1 X156.279 Y56.586 E139.1120
G1 X156.628 Y56.872 E139.1402
G1 X156.914 Y57.221 E139.1683
G1 X157.127 Y57.619 E139.1964
G1 X157.258 Y58.051 E139.2246
G1 X157.302 Y58.500 E139.2527
G1 X157.258 Y58.949 E139.2809
G1 X157.127 Y59.381 E139.3090
G1 X156.914 Y59.779 E139.3371
G1 X156.628 Y60.128 E139.3653
G1 X156.279 Y60.414 E139.3934
G1 X155.881 Y60.627 E139.4216
G1 X155.449 Y60.758 E139.4497
G1 X155.000 Y60.802 E139.4779
G1 X154.551 Y60.758 E139.5060
G1 X154.205 Y60.653 E139.5285
G0 X153.329 Y60.448 F5400
G0 X152.417 Y59.800
;segType:Loop
G1 X152.316 Y59.611 E139.5419 F2400
G1 X152.151 Y59.067 E139.5774
G1 X152.095 Y58.500 E139.6129
G1 X152.151 Y57.933 E139.6484
G1 X152.316 Y57.388 E139.6839
G1 X152.585 Y56.886 E139.7194
G1 X152.946 Y56.446 E139.7549
G1 X153.386 Y56.084 E139.7905
G1 X153.888 Y55.816 E139.8260
G1 X154.433 Y55.651 E139.8615
G1 X155.000 Y55.595 E139.8970
G1 X155.567 Y55.651 E139.9325
G1 X156.112 Y55.816 E139.9680
G1 X156.614 Y56.084 E140.0035
G1 X157.054 Y56.446 E140.0391
G1 X157.416 Y56.886 E140.0746
G1 X157.684 Y57.388 E140.1101
G1 X157.849 Y57.933 E140.1456
G1 X157.905 Y58.500 E140.1811
G1 X157.849 Y59.067 E140.2167
G1 X157.684 Y59.612 E140.2521
G1 X157.416 Y60.114 E140.2876
G1 X157.054 Y60.554 E140.3232
G1 X156.614 Y60.915 E140.3587
G1 X156.112 Y61.184 E140.3942
G1 X155.567 Y61.349 E140.4297
G1 X155.000 Y61.405 E140.4652
G1 X154.433 Y61.349 E140.5007
G1 X153.888 Y61.184 E140.5362
G1 X153.386 Y60.915 E140.5718
G1 X152.946 Y60.554 E140.6073
G1 X152.584 Y60.114 E140.6428
G1 X152.558 Y60.065 E140.6462
G0 F3000 E139.6462
G0 X168.623 Y66.932 F5400
G0 F3000 E140.6462
;segType:HShell
G1 X155.961 Y54.270 E141.7629 F2039
G0 X155.412 Y53.225 F5400
;segType:Perimeter
G1 X155.000 Y53.307 E141.7891 F1439
G1 X154.500 Y53.207 E141.8209
G1 X154.076 Y52.924 E141.8527
G1 X153.793 Y52.500 E141.8845
G1 X153.694 Y52.000 E141.9163
G1 X153.793 Y51.500 E141.9481
G1 X154.076 Y51.076 E141.9799
G1 X154.500 Y50.793 E142.0116
G1 X155.000 Y50.694 E142.0434
G1 X155.500 Y50.793 E142.0752
G1 X155.924 Y51.076 E142.1070
G1 X156.207 Y51.500 E142.1388
G1 X156.306 Y52.000 E142.1706
G1 X156.207 Y52.500 E142.2024
G1 X155.924 Y52.924 E142.2342
G1 X155.575 Y53.157 E142.2604
G0 F3000 E141.2604
G0 X156.557 Y53.057 F5400
G0 X156.357 Y53.356
G0 X155.734 Y53.772
G0 X155.000 Y53.918
G0 X154.266 Y53.772
G0 X153.643 Y53.356
G0 X153.643 Y53.355
G0 X153.643 Y53.355
G0 F3000 E142.2604
;segType:Loop
G1 X153.228 Y52.734 E142.3070 F2400
G1 X153.082 Y52.000 E142.3536
G1 X153.228 Y51.266 E142.4003
G1 X153.644 Y50.644 E142.4470
G1 X154.266 Y50.228 E142.4936
G1 X155.000 Y50.082 E142.5403
G1 X155.734 Y50.228 E142.5870
G1 X156.356 Y50.644 E142.6337
G1 X156.772 Y51.266 E142.6803
G1 X156.918 Y52.000 E142.7270
G1 X156.772 Y52.734 E142.7737
G1 X156.357 Y53.356 E142.8204
G1 X155.734 Y53.772 E142.8671
G1 X155.000 Y53.918 E142.9138
G1 X154.266 Y53.772 E142.9604
G1 X153.892 Y53.522 E142.9885
G0 X156.086 Y55.244 F5400
;segType:HShell
G0 X156.164 Y54.898
G1 X154.691 Y54.697 E143.0614 F2039
G0 X154.279 Y55.133 F5400
G1 X151.441 Y52.296 E143.3116 F2039
G0 X151.441 Y53.144 F5400
G1 X153.636 Y55.339 E143.5052 F2039
G0 X153.083 Y55.634 F5400
G1 X151.441 Y53.993 E143.6500 F2039
G0 X151.302 Y54.702 F5400
G1 X152.617 Y56.017 E143.7659 F2039
G0 X152.225 Y56.473 F5400
G1 X150.904 Y55.153 E143.8824 F2039
G0 X150.506 Y55.603 F5400
G1 X151.908 Y57.006 E144.0061 F2039
G0 X151.680 Y57.626 F5400
G1 X150.107 Y56.053 E144.1448 F2039
G0 X149.709 Y56.503 F5400
G1 X151.566 Y58.360 E144.3085 F2039
G0 X151.657 Y59.300 F5400
G1 X149.311 Y56.954 E144.5154 F2039
G0 F3000 E143.5154
G0 X140.662 Y66.852 F5400
G0 F3000 E144.5154
;segType:InnerHair
G1 X140.495 Y66.927 E144.5248 F2039
G1 X140.328 Y67.002 E144.5313
G1 X140.257 Y67.034 E144.5335
G1 X140.429 Y66.957 E144.5420
G1 X140.600 Y66.880 E144.5534
G1 X140.662 Y66.852 E144.5579
G0 F3000 E143.5579
G0 X145.713 Y66.932 F5400
G0 F3000 E144.5579
;segType:HShell
G1 X142.938 Y64.158 E144.8026 F2039
G0 X143.337 Y63.707 F5400
G1 X146.561 Y66.932 E145.0871 F2039
G0 X147.410 Y66.932 F5400
G1 X143.735 Y63.257 E145.4112 F2039
G0 X144.133 Y62.807 F5400
G1 X148.258 Y66.932 E145.7750 F2039
G0 X149.107 Y66.932 F5400
G1 X144.531 Y62.357 E146.1785 F2039
G0 X144.930 Y61.906 F5400
G1 X149.956 Y66.932 E146.6218 F2039
G0 X150.804 Y66.932 F5400
G1 X145.328 Y61.456 E147.1048 F2039
G0 X145.726 Y61.006 F5400
G1 X151.653 Y66.932 E147.6274 F2039
G0 X152.501 Y66.932 F5400
G1 X146.125 Y60.556 E148.1898 F2039
G0 X146.523 Y60.105 F5400
G1 X153.350 Y66.932 E148.7919 F2039
G0 X154.198 Y66.932 F5400
G1 X146.921 Y59.655 E149.4337 F2039
G0 X147.319 Y59.205 F5400
G1 X155.047 Y66.932 E150.1152 F2039
G0 X155.895 Y66.932 F5400
G1 X147.718 Y58.755 E150.8364 F2039
G0 X148.116 Y58.304 F5400
G1 X156.744 Y66.932 E151.5973 F2039
G0 X157.592 Y66.932 F5400
G1 X148.514 Y57.854 E152.3980 F2039
G0 X148.913 Y57.404 F5400
G1 X158.441 Y66.932 E153.2383 F2039
G0 X159.289 Y66.932 F5400
G1 X154.200 Y61.843 E153.6872 F2039
G0 F3000 E152.6872
G0 X169.255 Y66.815 F5400
G0 F3000 E153.6872
;segType:InnerHair
G1 X169.422 Y66.890 E153.6979 F2039
G1 X169.590 Y66.965 E153.7058
G1 X169.757 Y67.040 E153.7108
G1 X169.743 Y67.034 E153.7113
G1 X169.571 Y66.957 E153.7197
G1 X169.400 Y66.880 E153.7311
G1 X169.255 Y66.815 E153.7429
G0 X169.226 Y66.686 F5400
;segType:HShell
G1 X156.470 Y53.930 E154.8679 F2039
G0 X156.901 Y53.513 F5400
G1 X163.353 Y59.965 E155.4369 F2039
G0 X156.495 Y61.592 F5400
G1 X161.835 Y66.932 E155.9079 F2039
G0 X162.683 Y66.932 F5400
G1 X157.027 Y61.275 E156.4068 F2039
G0 X157.483 Y60.883 F5400
G1 X163.532 Y66.932 E156.9403 F2039
G0 X164.381 Y66.932 F5400
G1 X157.865 Y60.417 E157.5149 F2039
G0 X158.161 Y59.864 F5400
G1 X165.229 Y66.932 E158.1382 F2039
G0 X166.078 Y66.932 F5400
G1 X158.367 Y59.221 E158.8183 F2039
G0 X158.443 Y58.449 F5400
G1 X166.926 Y66.932 E159.5665 F2039
G0 X167.775 Y66.932 F5400
G1 X158.256 Y57.413 E160.4060 F2039
G0 X157.241 Y53.005 F5400
G1 X158.559 Y54.322 E160.5222 F2039
G0 X158.559 Y53.474 F5400
G1 X157.405 Y52.320 E160.6240 F2039
G0 X157.354 Y51.420 F5400
G1 X158.559 Y52.625 E160.7303 F2039
G0 X157.768 Y48.441 F5400
G1 X158.559 Y49.231 E160.8000 F2039
G0 X158.559 Y50.080 F5400
G1 X156.920 Y48.441 E160.9446 F2039
G0 X156.071 Y48.441 F5400
G1 X158.559 Y50.928 E161.1640 F2039
G0 X158.559 Y51.777 F5400
G1 X155.223 Y48.441 E161.4582 F2039
G0 X154.374 Y48.441 F5400
G1 X155.580 Y49.646 E161.5645 F2039
G0 X154.680 Y49.595 F5400
G1 X153.526 Y48.441 E161.6663 F2039
G0 X152.677 Y48.441 F5400
G1 X153.995 Y49.759 E161.7826 F2039
G0 X153.487 Y50.099 F5400
G1 X151.829 Y48.441 E161.9288 F2039
G0 X151.441 Y48.901 F5400
G1 X153.070 Y50.530 E162.0725 F2039
G0 X152.730 Y51.039 F5400
G1 X151.441 Y49.750 E162.1861 F2039
G0 X151.441 Y50.599 F5400
G1 X152.583 Y51.740 E162.2868 F2039
G0 X152.664 Y52.670 F5400
G1 X151.441 Y51.447 E162.3947 F2039
G0 F3000 E161.3947
G0 X150.901 Y52.386 F5400
G0 X150.901 Y54.341
G0 X147.689 Y57.971
G0 X147.689 Y57.971
G0 X142.226 Y67.472
G0 X140.600 Y70.300
G0 F3000 E162.3947
;segType:Support
G1 X169.400 Y70.300 E163.9213 F3600
G1 X169.400 Y72.100 E164.0167
G1 X140.600 Y72.100 E165.5433
G1 X140.600 Y73.900 E165.6388
G1 X169.400 Y73.900 E167.1654
G0 F3000 E166.1654
G0 X179.300 Y75.700 F5400
G0 F3000 E167.1654
G1 X206.300 Y75.700 E168.5966 F3600
G1 X206.300 Y73.900 E168.6920
G1 X179.300 Y73.900 E170.1232
G1 X179.300 Y72.100 E170.2186
G1 X206.300 Y72.100 E171.6499
G1 X206.300 Y70.300 E171.7453
G1 X179.300 Y70.300 E173.1765
G0 F3000 E172.1765
G0 X183.048 Y66.932 F5400
G0 F3000 E173.1765
;segType:HShell
G1 X180.626 Y64.510 E173.3901 F2039
G0 X180.228 Y64.960 F5400
G1 X182.200 Y66.932 E173.5640 F2039
G0 X181.351 Y66.932 F5400
G1 X179.830 Y65.411 E173.6982 F2039
G0 X179.431 Y65.861 F5400
G1 X180.503 Y66.932 E173.7927 F2039
G0 X179.654 Y66.932 F5400
G1 X179.033 Y66.311 E173.8474 F2039
G0 X177.699 Y66.962 F5400
;segType:Perimeter
G1 X177.699 Y68.162 E173.9222 F1439
G1 X177.699 Y82.199 E174.7976
G1 X176.801 Y82.199 E174.8537
G1 X176.801 Y67.114 E175.7945
G1 X188.301 Y54.114 E176.8769
G1 X188.301 Y47.301 E177.3018
G1 X197.699 Y47.301 E177.8879
G1 X197.699 Y54.114 E178.3128
G1 X209.199 Y67.115 E179.3953
G1 X209.199 Y82.199 E180.3360
G1 X208.301 Y82.199 E180.3921
G1 X208.301 Y68.072 E181.2731
G1 X177.789 Y68.072 E183.1758
G0 X177.465 Y67.625 F5400
G0 X177.401 Y67.536
G0 X177.401 Y67.536
;segType:Loop
G1 X177.401 Y67.341 E183.1879 F2400
G1 X188.901 Y54.341 E184.2704
G1 X188.901 Y47.901 E184.6720
G1 X197.099 Y47.901 E185.1833
G1 X197.099 Y54.341 E185.5849
G1 X208.599 Y67.342 E186.6674
G1 X208.599 Y67.686 E186.6888
G1 X208.314 Y67.472 E186.7110
G1 X177.629 Y67.472 E188.6247
G1 X177.510 Y67.583 E188.6348
G0 F3000 E187.6348
G0 X190.943 Y61.250 F5400
G0 F3000 E188.6348
;segType:HShell
G1 X196.625 Y66.932 E189.1359 F2039
G0 X197.473 Y66.932 F5400
G1 X192.433 Y61.892 E189.5805 F2039
G0 X192.804 Y61.059 F5400
;segType:Perimeter
G1 X192.040 Y60.584 E189.6366 F1439
G1 X191.721 Y60.414 E189.6591
G1 X191.372 Y60.128 E189.6873
G1 X191.086 Y59.779 E189.7154
G1 X190.873 Y59.381 E189.7435
G1 X190.742 Y58.949 E189.7717
G1 X190.698 Y58.500 E189.7998
G1 X190.742 Y58.051 E189.8280
G1 X190.873 Y57.619 E189.8561
G1 X191.086 Y57.221 E189.8842
G1 X191.372 Y56.872 E189.9124
G1 X191.721 Y56.586 E189.9405
G1 X192.119 Y56.373 E189.9687
G1 X192.551 Y56.242 E189.9968
G1 X193.000 Y56.198 E190.0250
G1 X193.449 Y56.242 E190.0531
G1 X193.881 Y56.373 E190.0812
G1 X194.279 Y56.586 E190.1094
G1 X194.628 Y56.872 E190.1375
G1 X194.914 Y57.221 E190.1657
G1 X195.127 Y57.619 E190.1938
G1 X195.258 Y58.051 E190.2220
G1 X195.302 Y58.500 E190.2501
G1 X195.258 Y58.949 E190.2783
G1 X195.127 Y59.381 E190.3064
G1 X194.914 Y59.779 E190.3345
G1 X194.628 Y60.128 E190.3627
G1 X194.279 Y60.414 E190.3908
G1 X193.881 Y60.627 E190.4190
G1 X193.449 Y60.758 E190.4471
G1 X193.000 Y60.802 E190.4752
G1 X192.551 Y60.758 E190.5034
G1 X192.205 Y60.653 E190.5259
G0 X191.329 Y60.448 F5400
G0 X190.417 Y59.800
;segType:Loop
G1 X190.316 Y59.611 E190.5393 F2400
G1 X190.151 Y59.067 E190.5747
G1 X190.095 Y58.500 E190.6103
G1 X190.151 Y57.933 E190.6458
G1 X190.316 Y57.388 E190.6813
G1 X190.585 Y56.886 E190.7168
G1 X190.946 Y56.446 E190.7523
G1 X191.386 Y56.084 E190.7878
G1 X191.888 Y55.816 E190.8234
G1 X192.433 Y55.651 E190.8589
G1 X193.000 Y55.595 E190.8944
G1 X193.567 Y55.651 E190.9299
G1 X194.112 Y55.816 E190.9654
G1 X194.614 Y56.084 E191.0009
G1 X195.054 Y56.446 E191.0365
G1 X195.416 Y56.886 E191.0720
G1 X195.684 Y57.388 E191.1075
G1 X195.849 Y57.933 E191.1430
G1 X195.905 Y58.500 E191.1785
G1 X195.849 Y59.067 E191.2141
G1 X195.684 Y59.611 E191.2495
G1 X195.416 Y60.114 E191.2850
G1 X195.054 Y60.554 E191.3206
G1 X194.614 Y60.915 E191.3561
G1 X194.112 Y61.184 E191.3916
G1 X193.567 Y61.349 E191.4271
G1 X193.000 Y61.405 E191.4626
G1 X192.433 Y61.349 E191.4981
G1 X191.888 Y61.184 E191.5336
G1 X191.386 Y60.915 E191.5692
G1 X190.946 Y60.554 E191.6047
G1 X190.584 Y60.114 E191.6402
G1 X190.558 Y60.065 E191.6436
G0 F3000 E190.6436
G0 X206.807 Y66.932 F5400
G0 F3000 E191.6436
;segType:HShell
G1 X194.071 Y54.197 E192.7668 F2039
G0 X193.413 Y54.387 F5400
G1 X194.366 Y55.339 E192.8508 F2039
G0 X193.255 Y55.077 F5400
G1 X192.559 Y54.381 E192.9122 F2039
G0 X192.425 Y53.157 F5400
;segType:Perimeter
G1 X192.076 Y52.924 E192.9384 F1439
G1 X191.793 Y52.500 E192.9702
G1 X191.694 Y52.000 E193.0020
G1 X191.793 Y51.500 E193.0337
G1 X192.076 Y51.076 E193.0655
G1 X192.500 Y50.793 E193.0973
G1 X193.000 Y50.694 E193.1291
G1 X193.500 Y50.793 E193.1609
G1 X193.924 Y51.076 E193.1927
G1 X194.207 Y51.500 E193.2245
G1 X194.306 Y52.000 E193.2563
G1 X194.207 Y52.500 E193.2880
G1 X193.924 Y52.924 E193.3198
G1 X193.500 Y53.207 E193.3516
G1 X193.000 Y53.307 E193.3834
G1 X192.588 Y53.225 E193.4096
G0 F3000 E192.4096
G0 X193.354 Y53.848 F5400
G0 X193.000 Y53.918
G0 X192.266 Y53.772
G0 X191.643 Y53.356
G0 X191.228 Y52.734
G0 X191.082 Y52.000
G0 X191.082 Y51.999
G0 X191.082 Y51.999
G0 F3000 E193.4096
;segType:Loop
G1 X191.228 Y51.266 E193.4562 F2400
G1 X191.644 Y50.644 E193.5029
G1 X192.266 Y50.228 E193.5495
G1 X193.000 Y50.082 E193.5962
G1 X193.734 Y50.228 E193.6429
G1 X194.356 Y50.644 E193.6896
G1 X194.772 Y51.266 E193.7362
G1 X194.918 Y52.000 E193.7829
G1 X194.772 Y52.734 E193.8296
G1 X194.357 Y53.356 E193.8762
G1 X193.734 Y53.772 E193.9229
G1 X193.000 Y53.918 E193.9696
G1 X192.266 Y53.772 E194.0163
G1 X191.643 Y53.356 E194.0630
G1 X191.228 Y52.734 E194.1097
G1 X191.140 Y52.293 E194.1377
G0 F3000 E193.1377
G0 X191.140 Y52.293 F5400
G0 X191.228 Y52.734
G0 X191.643 Y53.356
G0 X192.266 Y53.772
G0 X193.000 Y53.918
G0 X193.734 Y53.772
G0 X194.357 Y53.356
G0 X194.731 Y52.796
G0 X195.295 Y52.875
G0 F3000 E194.1377
;segType:HShell
G1 X196.559 Y54.139 E194.2492 F2039
G0 X196.559 Y53.290 F5400
G1 X195.436 Y52.167 E194.3482 F2039
G0 X195.308 Y51.191 F5400
G1 X196.559 Y52.442 E194.4586 F2039
G0 X196.160 Y57.134 F5400
G1 X205.958 Y66.932 E195.3227 F2039
G0 X205.110 Y66.932 F5400
G1 X196.423 Y58.245 E196.0889 F2039
G0 X196.392 Y59.063 F5400
G1 X204.261 Y66.932 E196.7829 F2039
G0 X203.413 Y66.932 F5400
G1 X196.212 Y59.731 E197.4180 F2039
G0 X195.930 Y60.298 F5400
G1 X202.564 Y66.932 E198.0031 F2039
G0 X201.716 Y66.932 F5400
G1 X195.566 Y60.782 E198.5455 F2039
G0 X195.128 Y61.193 F5400
G1 X200.867 Y66.932 E199.0517 F2039
G0 X200.019 Y66.932 F5400
G1 X194.614 Y61.528 E199.5283 F2039
G0 X194.015 Y61.777 F5400
G1 X199.170 Y66.932 E199.9829 F2039
G0 X198.322 Y66.932 F5400
G1 X193.307 Y61.917 E200.4252 F2039
G0 F3000 E199.4252
G0 X207.286 Y66.829 F5400
G0 F3000 E200.4252
;segType:InnerHair
G1 X207.457 Y66.906 E200.4356 F2039
G1 X207.629 Y66.983 E200.4430
G1 X207.632 Y66.985 E200.4432
G1 X207.465 Y66.910 E200.4532
G1 X207.298 Y66.834 E200.4661
G1 X207.286 Y66.829 E200.4671
G0 X206.444 Y65.721 F5400
;segType:HShell
G1 X194.580 Y53.857 E201.5134 F2039
G0 X194.975 Y53.403 F5400
G1 X199.942 Y58.371 E201.9515 F2039
G0 F3000 E200.9515
G0 X178.706 Y66.832 F5400
G0 F3000 E201.9515
;segType:InnerHair
G1 X178.538 Y66.908 E201.9616 F2039
G1 X178.371 Y66.983 E201.9688
G1 X178.314 Y67.008 E201.9710
G1 X178.486 Y66.931 E201.9804
G1 X178.657 Y66.854 E201.9928
G1 X178.706 Y66.832 E201.9966
G0 F3000 E200.9966
G0 X183.897 Y66.932 F5400
G0 F3000 E201.9966
;segType:HShell
G1 X181.025 Y64.060 E202.2499 F2039
G0 X181.423 Y63.610 F5400
G1 X184.745 Y66.932 E202.5429 F2039
G0 X185.594 Y66.932 F5400
G1 X181.821 Y63.160 E202.8756 F2039
G0 X182.219 Y62.709 F5400
G1 X186.442 Y66.932 E203.2481 F2039
G0 X187.291 Y66.932 F5400
G1 X182.618 Y62.259 E203.6602 F2039
G0 X183.016 Y61.809 F5400
G1 X188.139 Y66.932 E204.1120 F2039
G0 X188.988 Y66.932 F5400
G1 X183.414 Y61.359 E204.6036 F2039
G0 X183.813 Y60.908 F5400
G1 X189.836 Y66.932 E205.1349 F2039
G0 X190.685 Y66.932 F5400
G1 X184.211 Y60.458 E205.7058 F2039
G0 X184.609 Y60.008 F5400
G1 X191.533 Y66.932 E206.3165 F2039
G0 X192.382 Y66.932 F5400
G1 X185.007 Y59.558 E206.9669 F2039
G0 X185.406 Y59.107 F5400
G1 X193.230 Y66.932 E207.6570 F2039
G0 X194.079 Y66.932 F5400
G1 X185.804 Y58.657 E208.3868 F2039
G0 X186.202 Y58.207 F5400
G1 X194.928 Y66.932 E209.1563 F2039
G0 X195.776 Y66.932 F5400
G1 X186.601 Y57.757 E209.9656 F2039
G0 X186.999 Y57.306 F5400
G1 X190.249 Y60.557 E210.2522 F2039
G0 X189.608 Y59.067 F5400
G1 X187.397 Y56.856 E210.4472 F2039
G0 X187.795 Y56.406 F5400
G1 X189.582 Y58.193 E210.6049 F2039
G0 X189.723 Y57.485 F5400
G1 X188.194 Y55.956 E210.7397 F2039
G0 X188.592 Y55.505 F5400
G1 X189.972 Y56.886 E210.8614 F2039
G0 X190.307 Y56.372 F5400
G1 X188.990 Y55.055 E210.9776 F2039
G0 X189.389 Y54.605 F5400
G1 X190.718 Y55.934 E211.0948 F2039
G0 X191.202 Y55.570 F5400
G1 X189.441 Y53.809 E211.2501 F2039
G0 X189.441 Y52.960 F5400
G1 X191.769 Y55.288 E211.4554 F2039
G0 X192.437 Y55.108 F5400
G1 X189.441 Y52.112 E211.7196 F2039
G0 X189.441 Y51.263 F5400
G1 X190.619 Y52.441 E211.8235 F2039
G0 X190.613 Y51.587 F5400
G1 X189.441 Y50.415 E211.9269 F2039
G0 X189.441 Y49.566 F5400
G1 X190.803 Y50.929 E212.0471 F2039
G0 X191.143 Y50.420 F5400
G1 X189.441 Y48.718 E212.1972 F2039
G0 X190.013 Y48.441 F5400
G1 X191.597 Y50.025 E212.3369 F2039
G0 X192.125 Y49.705 F5400
G1 X190.861 Y48.441 E212.4485 F2039
G0 X191.710 Y48.441 F5400
G1 X192.833 Y49.564 E212.5476 F2039
G0 X193.809 Y49.692 F5400
G1 X192.558 Y48.441 E212.6579 F2039
G0 X193.407 Y48.441 F5400
G1 X196.559 Y51.593 E212.9360 F2039
G0 X196.559 Y50.745 F5400
G1 X194.255 Y48.441 E213.1391 F2039
G0 X195.104 Y48.441 F5400
G1 X196.559 Y49.896 E213.2675 F2039
G0 X196.559 Y49.048 F5400
G1 X195.952 Y48.441 E213.3210 F2039
G0 F3000 E212.3210
G0 X195.760 Y47.901 F5400
G0 X197.099 Y51.662
G0 X197.099 Y51.662
G0 X197.099 Y54.341
G0 X198.696 Y56.146
G0 X198.696 Y56.146
G0 X202.729 Y67.472
G0 X206.300 Y77.500
G0 F3000 E213.3210
;segType:Support
G1 X179.300 Y77.500 E214.7522 F3600
G1 X179.300 Y79.300 E214.8477
G1 X206.300 Y79.300 E216.2789
G1 X206.300 Y81.100 E216.3743
G1 X179.300 Y81.100 E217.8055
G1 X179.300 Y82.900 E217.9009
G1 X206.300 Y82.900 E219.3322
G0 X209.900 Y84.700 F5400
G1 X175.700 Y84.700 E221.1450 F3600
G0 X177.500 Y88.300 F5400
G1 X175.700 Y88.300 E221.2405 F3600
G1 X175.700 Y86.500 E221.3359
G1 X209.900 Y86.500 E223.1488
G1 X209.900 Y88.300 E223.2442
G1 X208.100 Y88.300 E223.3396
G1 X208.100 Y90.100 E223.4350
G1 X209.900 Y90.100 E223.5304
G1 X209.900 Y91.900 E223.6258
G1 X208.100 Y91.900 E223.7212
G1 X208.100 Y93.700 E223.8166
G1 X209.900 Y93.700 E223.9121
G1 X209.900 Y95.500 E224.0075
G1 X208.100 Y95.500 E224.1029
G1 X209.900 Y97.300 E224.2378
G1 X208.100 Y97.300 E224.3332
; ------------------------------------
; Layer #1
; ------------------------------------
M106 S0 ;turn off fan
G92 E0 ;reset extr
G0 F3000 E-1.0000
G0 F1200 Z0.500
G0 X177.500 Y90.100 F7200
G0 F3000 E0.0000
;segType:Support
G1 X175.700 Y90.100 E0.0954 F5400
G1 X175.700 Y91.900 E0.1908
G1 X177.500 Y91.900 E0.2862
G0 X175.700 Y84.700 F7200
G1 X209.900 Y84.700 E2.0991 F5400
G0 X206.300 Y82.900 F7200
G1 X179.300 Y82.900 E3.5304 F5400
G0 X179.300 Y70.300 F7200
G1 X206.300 Y70.300 E4.9616 F5400
G1 X206.300 Y72.100 E5.0570
G1 X179.300 Y72.100 E6.4882
G1 X179.300 Y73.900 E6.5836
G1 X206.300 Y73.900 E8.0149
G1 X206.300 Y75.700 E8.1103
G1 X179.300 Y75.700 E9.5415
G1 X179.300 Y77.500 E9.6369
G1 X206.300 Y77.500 E11.0681
G1 X206.300 Y79.300 E11.1636
G1 X179.300 Y79.300 E12.5948
G1 X179.300 Y81.100 E12.6902
G1 X206.300 Y81.100 E14.1214
G0 F3000 E13.1214
G0 X199.021 Y67.472 F7200
G0 X195.219 Y60.353
G0 X195.219 Y60.353
G0 X195.416 Y60.114
G0 X195.684 Y59.611
G0 X195.849 Y59.067
G0 X195.905 Y58.500
G0 X195.849 Y57.933
G0 X195.684 Y57.388
G0 X195.416 Y56.886
G0 X195.054 Y56.446
G0 X194.614 Y56.084
G0 X194.112 Y55.816
G0 X193.567 Y55.651
G0 X193.000 Y55.595
G0 X192.694 Y55.625
G0 X191.932 Y54.199
G0 F3000 E14.1214
;segType:HShell
G1 X179.199 Y66.932 E15.2444 F3059
G0 X177.699 Y66.962 F7200
;segType:Perimeter
G1 X177.699 Y68.162 E15.3192 F2159
G1 X177.699 Y82.199 E16.1946
G1 X176.801 Y82.199 E16.2507
G1 X176.801 Y67.114 E17.1915
G1 X188.301 Y54.114 E18.2739
G1 X188.301 Y47.301 E18.6988
G1 X197.699 Y47.301 E19.2849
G1 X197.699 Y54.114 E19.7098
G1 X209.199 Y67.115 E20.7922
G1 X209.199 Y82.199 E21.7330
G1 X208.301 Y82.199 E21.7890
G1 X208.301 Y68.072 E22.6700
G1 X177.789 Y68.072 E24.5728
G0 X177.465 Y67.625 F7200
G0 X177.401 Y67.536
G0 X177.401 Y67.536
;segType:Loop
G1 X177.401 Y67.341 E24.5849 F3600
G1 X188.901 Y54.341 E25.6673
G1 X188.901 Y47.901 E26.0690
G1 X197.099 Y47.901 E26.5803
G1 X197.099 Y54.341 E26.9819
G1 X208.599 Y67.342 E28.0644
G1 X208.599 Y67.686 E28.0858
G1 X208.314 Y67.472 E28.1080
G1 X177.629 Y67.472 E30.0216
G1 X177.510 Y67.583 E30.0318
G0 F3000 E29.0318
G0 X192.698 Y61.918 F7200
G0 F3000 E30.0318
;segType:HShell
G1 X187.684 Y66.932 E30.4740 F3059
G0 X186.836 Y66.932 F7200
G1 X191.989 Y61.779 E30.9285 F3059
G0 X192.804 Y61.059 F7200
;segType:Perimeter
G1 X192.040 Y60.584 E30.9846 F2159
G1 X191.721 Y60.414 E31.0072
G1 X191.372 Y60.128 E31.0353
G1 X191.086 Y59.779 E31.0634
G1 X190.873 Y59.381 E31.0916
G1 X190.742 Y58.949 E31.1197
G1 X190.698 Y58.500 E31.1478
G1 X190.742 Y58.051 E31.1760
G1 X190.873 Y57.619 E31.2041
G1 X191.086 Y57.221 E31.2323
G1 X191.372 Y56.872 E31.2604
G1 X191.721 Y56.586 E31.2886
G1 X192.119 Y56.373 E31.3167
G1 X192.551 Y56.242 E31.3448
G1 X193.000 Y56.198 E31.3730
G1 X193.449 Y56.242 E31.4011
G1 X193.881 Y56.373 E31.4293
G1 X194.279 Y56.586 E31.4574
G1 X194.628 Y56.872 E31.4856
G1 X194.914 Y57.221 E31.5137
G1 X195.127 Y57.619 E31.5419
G1 X195.258 Y58.051 E31.5700
G1 X195.302 Y58.500 E31.5981
G1 X195.258 Y58.949 E31.6263
G1 X195.127 Y59.381 E31.6544
G1 X194.914 Y59.779 E31.6826
G1 X194.628 Y60.128 E31.7107
G1 X194.279 Y60.414 E31.7388
G1 X193.881 Y60.627 E31.7670
G1 X193.449 Y60.758 E31.7951
G1 X193.000 Y60.802 E31.8233
G1 X192.551 Y60.758 E31.8514
G1 X192.205 Y60.653 E31.8740
G0 X191.329 Y60.448 F7200
G0 X190.417 Y59.800
;segType:Loop
G1 X190.316 Y59.611 E31.8873 F3600
G1 X190.151 Y59.067 E31.9228
G1 X190.095 Y58.500 E31.9583
G1 X190.151 Y57.933 E31.9939
G1 X190.316 Y57.388 E32.0294
G1 X190.585 Y56.886 E32.0649
G1 X190.946 Y56.446 E32.1003
G1 X191.386 Y56.084 E32.1359
G1 X191.888 Y55.816 E32.1714
G1 X192.433 Y55.651 E32.2069
G1 X193.000 Y55.595 E32.2425
G1 X193.567 Y55.651 E32.2780
G1 X194.112 Y55.816 E32.3135
G1 X194.614 Y56.084 E32.3490
G1 X195.054 Y56.446 E32.3845
G1 X195.416 Y56.886 E32.4200
G1 X195.684 Y57.388 E32.4555
G1 X195.849 Y57.933 E32.4910
G1 X195.905 Y58.500 E32.5265
G1 X195.849 Y59.067 E32.5621
G1 X195.684 Y59.611 E32.5976
G1 X195.416 Y60.114 E32.6331
G1 X195.054 Y60.554 E32.6686
G1 X194.614 Y60.915 E32.7041
G1 X194.112 Y61.184 E32.7396
G1 X193.567 Y61.349 E32.7751
G1 X193.000 Y61.405 E32.8106
G1 X192.433 Y61.349 E32.8462
G1 X191.888 Y61.184 E32.8817
G1 X191.386 Y60.915 E32.9172
G1 X190.946 Y60.554 E32.9527
G1 X190.584 Y60.114 E32.9882
G1 X190.558 Y60.065 E32.9917
G0 F3000 E31.9917
G0 X179.507 Y65.775 F7200
G0 F3000 E32.9917
;segType:HShell
G1 X191.423 Y53.859 E34.0426 F3059
G0 X192.425 Y53.157 F7200
;segType:Perimeter
G1 X192.076 Y52.924 E34.0688 F2159
G1 X191.793 Y52.500 E34.1006
G1 X191.694 Y52.000 E34.1324
G1 X191.793 Y51.500 E34.1642
G1 X192.076 Y51.076 E34.1960
G1 X192.500 Y50.793 E34.2278
G1 X193.000 Y50.694 E34.2596
G1 X193.500 Y50.793 E34.2913
G1 X193.924 Y51.076 E34.3231
G1 X194.207 Y51.500 E34.3549
G1 X194.306 Y52.000 E34.3867
G1 X194.207 Y52.500 E34.4185
G1 X193.924 Y52.924 E34.4503
G1 X193.500 Y53.207 E34.4821
G1 X193.000 Y53.307 E34.5139
G1 X192.588 Y53.225 E34.5401
G0 F3000 E33.5401
G0 X193.354 Y53.848 F7200
G0 X193.000 Y53.918
G0 X192.266 Y53.772
G0 X191.643 Y53.356
G0 X191.228 Y52.734
G0 X191.082 Y52.000
G0 X191.082 Y51.999
G0 X191.082 Y51.999
G0 F3000 E34.5401
;segType:Loop
G1 X191.228 Y51.266 E34.5867 F3600
G1 X191.644 Y50.644 E34.6333
G1 X192.266 Y50.228 E34.6800
G1 X193.000 Y50.082 E34.7267
G1 X193.734 Y50.228 E34.7734
G1 X194.356 Y50.644 E34.8200
G1 X194.772 Y51.266 E34.8667
G1 X194.918 Y52.000 E34.9134
G1 X194.772 Y52.734 E34.9600
G1 X194.357 Y53.356 E35.0067
G1 X193.734 Y53.772 E35.0534
G1 X193.000 Y53.918 E35.1001
G1 X192.266 Y53.772 E35.1468
G1 X191.643 Y53.356 E35.1935
G1 X191.228 Y52.734 E35.2401
G1 X191.140 Y52.293 E35.2682
G0 X189.441 Y54.144 F7200
;segType:HShell
G1 X190.706 Y52.879 E35.3797 F3059
G0 X190.565 Y52.172 F7200
G1 X189.441 Y53.296 E35.4789 F3059
G0 X189.441 Y52.447 F7200
G1 X190.691 Y51.198 E35.5891 F3059
G0 X190.053 Y48.441 F7200
G1 X189.441 Y49.053 E35.6431 F3059
G0 X189.441 Y49.902 F7200
G1 X190.902 Y48.441 E35.7720 F3059
G0 X191.751 Y48.441 F7200
G1 X189.441 Y50.750 E35.9757 F3059
G0 X189.441 Y51.599 F7200
G1 X192.599 Y48.441 E36.2542 F3059
G0 X193.448 Y48.441 F7200
G1 X192.198 Y49.691 E36.3644 F3059
G0 X193.172 Y49.565 F7200
G1 X194.296 Y48.441 E36.4636 F3059
G0 X195.145 Y48.441 F7200
G1 X193.879 Y49.706 E36.5752 F3059
G0 X194.406 Y50.027 F7200
G1 X195.993 Y48.441 E36.7151 F3059
G0 X196.559 Y48.723 F7200
G1 X194.859 Y50.424 E36.8651 F3059
G0 X195.199 Y50.932 F7200
G1 X196.559 Y49.572 E36.9850 F3059
G0 X196.559 Y50.420 F7200
G1 X195.388 Y51.592 E37.0883 F3059
G0 X195.380 Y52.448 F7200
G1 X196.559 Y51.269 E37.1923 F3059
G0 X196.559 Y52.117 F7200
G1 X193.568 Y55.108 E37.4561 F3059
G0 X194.236 Y55.289 F7200
G1 X196.559 Y52.966 E37.6610 F3059
G0 X196.559 Y53.815 F7200
G1 X194.801 Y55.572 E37.8160 F3059
G0 X195.285 Y55.937 F7200
G1 X196.614 Y54.608 E37.9332 F3059
G0 X197.012 Y55.058 F7200
G1 X195.695 Y56.376 E38.0494 F3059
G0 X196.030 Y56.890 F7200
G1 X197.411 Y55.508 E38.1712 F3059
G0 X197.809 Y55.959 F7200
G1 X196.279 Y57.489 E38.3061 F3059
G0 X196.418 Y58.198 F7200
G1 X198.207 Y56.409 E38.4639 F3059
G0 X198.606 Y56.859 F7200
G1 X196.391 Y59.074 E38.6592 F3059
G0 X195.724 Y60.589 F7200
G1 X199.004 Y57.309 E38.9484 F3059
G0 X199.402 Y57.760 F7200
G1 X190.230 Y66.932 E39.7574 F3059
G0 X191.078 Y66.932 F7200
G1 X199.800 Y58.210 E40.5266 F3059
G0 X200.199 Y58.660 F7200
G1 X191.927 Y66.932 E41.2562 F3059
G0 X192.775 Y66.932 F7200
G1 X200.597 Y59.111 E41.9460 F3059
G0 X200.995 Y59.561 F7200
G1 X193.624 Y66.932 E42.5961 F3059
G0 X194.472 Y66.932 F7200
G1 X201.393 Y60.011 E43.2065 F3059
G0 X201.792 Y60.461 F7200
G1 X195.321 Y66.932 E43.7772 F3059
G0 X196.169 Y66.932 F7200
G1 X202.190 Y60.912 E44.3082 F3059
G0 X202.588 Y61.362 F7200
G1 X197.018 Y66.932 E44.7995 F3059
G0 X197.866 Y66.932 F7200
G1 X202.987 Y61.812 E45.2510 F3059
G0 X203.385 Y62.262 F7200
G1 X198.715 Y66.932 E45.6629 F3059
G0 X199.564 Y66.932 F7200
G1 X203.783 Y62.713 E46.0350 F3059
G0 X204.181 Y63.163 F7200
G1 X200.412 Y66.932 E46.3675 F3059
G0 X201.261 Y66.932 F7200
G1 X204.580 Y63.613 E46.6602 F3059
G0 X204.978 Y64.063 F7200
G1 X202.109 Y66.932 E46.9132 F3059
G0 X202.958 Y66.932 F7200
G1 X205.376 Y64.514 E47.1265 F3059
G0 X205.774 Y64.964 F7200
G1 X203.806 Y66.932 E47.3001 F3059
G0 X204.655 Y66.932 F7200
G1 X206.173 Y65.414 E47.4340 F3059
G0 X206.571 Y65.864 F7200
G1 X205.503 Y66.932 E47.5282 F3059
G0 X206.352 Y66.932 F7200
G1 X206.969 Y66.315 E47.5826 F3059
G0 X207.298 Y66.834 F7200
;segType:InnerHair
G1 X207.465 Y66.910 E47.5926 F3059
G1 X207.632 Y66.985 E47.5998
G1 X207.629 Y66.983 E47.6000
G1 X207.457 Y66.906 E47.6104
G1 X207.286 Y66.829 E47.6238
G1 X207.298 Y66.834 E47.6248
G0 F3000 E46.6248
G0 X195.089 Y61.224 F7200
G0 F3000 E47.6248
;segType:HShell
G1 X189.381 Y66.932 E48.1282 F3059
G0 X188.533 Y66.932 F7200
G1 X193.574 Y61.891 E48.5728 F3059
G0 X191.389 Y61.530 F7200
G1 X185.987 Y66.932 E49.0492 F3059
G0 X185.138 Y66.932 F7200
G1 X190.875 Y61.195 E49.5552 F3059
G0 X190.437 Y60.785 F7200
G1 X184.290 Y66.932 E50.0973 F3059
G0 X183.441 Y66.932 F7200
G1 X190.072 Y60.301 E50.6821 F3059
G0 X189.789 Y59.736 F7200
G1 X182.593 Y66.932 E51.3168 F3059
G0 X181.744 Y66.932 F7200
G1 X189.608 Y59.068 E52.0104 F3059
G0 X189.577 Y58.251 F7200
G1 X180.896 Y66.932 E52.7760 F3059
G0 X180.047 Y66.932 F7200
G1 X189.833 Y57.147 E53.6390 F3059
G0 F3000 E52.6390
G0 X178.706 Y66.832 F7200
G0 F3000 E53.6390
;segType:InnerHair
G1 X178.538 Y66.908 E53.6491 F3059
G1 X178.371 Y66.983 E53.6563
G1 X178.314 Y67.008 E53.6584
G1 X178.486 Y66.931 E53.6679
G1 X178.657 Y66.854 E53.6803
G1 X178.706 Y66.832 E53.6841
G0 F3000 E52.6841
G0 X186.013 Y58.421 F7200
G0 F3000 E53.6841
;segType:HShell
G1 X191.027 Y53.407 E54.1263 F3059
G0 X193.448 Y54.380 F7200
G1 X192.751 Y55.077 E54.1878 F3059
G0 X191.647 Y55.333 F7200
G1 X192.592 Y54.388 E54.2711 F3059
G0 F3000 E53.2711
G0 X169.400 Y70.300 F7200
G0 F3000 E54.2711
;segType:Support
G1 X140.600 Y70.300 E55.7977 F5400
G0 F3000 E54.7977
G0 X142.912 Y67.472 F7200
G0 X154.165 Y53.705
G0 X153.822 Y54.125
G0 F3000 E55.7977
;segType:HShell
G1 X141.015 Y66.932 E56.9272 F3059
G0 X139.700 Y66.962 F7200
;segType:Perimeter
G1 X139.700 Y68.162 E57.0021 F2159
G1 X139.700 Y82.199 E57.8775
G1 X138.801 Y82.199 E57.9335
G1 X138.801 Y67.114 E58.8743
G1 X150.301 Y54.114 E59.9567
G1 X150.301 Y47.301 E60.3816
G1 X159.699 Y47.301 E60.9677
G1 X159.699 Y54.114 E61.3926
G1 X171.199 Y67.114 E62.4750
G1 X171.199 Y82.199 E63.4158
G1 X170.301 Y82.199 E63.4719
G1 X170.301 Y68.072 E64.3529
G1 X139.790 Y68.072 E66.2556
G0 X139.623 Y67.382 F7200
G0 X139.568 Y67.152
G0 X139.623 Y67.382
;segType:Loop
G1 X139.571 Y67.343 E66.2614 F3600
G1 X139.400 Y67.420 E66.2751
G1 X139.401 Y67.341 E66.2801
G1 X150.901 Y54.341 E67.3625
G1 X150.901 Y47.901 E67.7641
G1 X159.099 Y47.901 E68.2754
G1 X159.099 Y54.341 E68.6771
G1 X170.404 Y67.120 E69.7411
G0 X170.425 Y67.342 F7200
G0 X170.592 Y67.417
G1 X170.600 Y67.420 E69.7417 F3600
G1 X170.429 Y67.343 E69.7585
G1 X170.257 Y67.472 E69.7719
G1 X139.893 Y67.472 E71.6655
G0 F3000 E70.6655
G0 X154.531 Y61.901 F7200
G0 F3000 E71.6655
;segType:HShell
G1 X149.500 Y66.932 E72.1091 F3059
G0 X150.349 Y66.932 F7200
G1 X155.370 Y61.911 E72.5520 F3059
G0 X155.059 Y61.218 F7200
;segType:Perimeter
G1 X154.040 Y60.584 E72.6268 F2159
G1 X153.721 Y60.414 E72.6493
G1 X153.372 Y60.128 E72.6775
G1 X153.086 Y59.779 E72.7056
G1 X152.873 Y59.381 E72.7338
G1 X152.742 Y58.949 E72.7619
G1 X152.698 Y58.500 E72.7900
G1 X152.742 Y58.051 E72.8182
G1 X152.873 Y57.619 E72.8463
G1 X153.086 Y57.221 E72.8745
G1 X153.372 Y56.872 E72.9026
G1 X153.721 Y56.586 E72.9308
G1 X154.119 Y56.373 E72.9589
G1 X154.551 Y56.242 E72.9871
G1 X155.000 Y56.198 E73.0152
G1 X155.449 Y56.242 E73.0434
G1 X155.881 Y56.373 E73.0715
G1 X156.279 Y56.586 E73.0996
G1 X156.628 Y56.872 E73.1278
G1 X156.914 Y57.221 E73.1559
G1 X157.127 Y57.619 E73.1841
G1 X157.258 Y58.051 E73.2122
G1 X157.302 Y58.500 E73.2404
G1 X157.258 Y58.949 E73.2685
G1 X157.127 Y59.381 E73.2966
G1 X156.914 Y59.779 E73.3248
G1 X156.628 Y60.128 E73.3529
G1 X156.279 Y60.414 E73.3811
G1 X155.881 Y60.627 E73.4092
G1 X155.449 Y60.758 E73.4374
G1 X155.000 Y60.802 E73.4655
G1 X154.551 Y60.758 E73.4937
G1 X154.205 Y60.653 E73.5162
G0 X153.329 Y60.448 F7200
G0 X152.417 Y59.800
;segType:Loop
G1 X152.316 Y59.611 E73.5295 F3600
G1 X152.151 Y59.067 E73.5650
G1 X152.095 Y58.500 E73.6006
G1 X152.151 Y57.933 E73.6361
G1 X152.316 Y57.388 E73.6716
G1 X152.585 Y56.886 E73.7071
G1 X152.946 Y56.446 E73.7426
G1 X153.386 Y56.084 E73.7781
G1 X153.888 Y55.816 E73.8136
G1 X154.433 Y55.651 E73.8492
G1 X155.000 Y55.595 E73.8847
G1 X155.567 Y55.651 E73.9202
G1 X156.112 Y55.816 E73.9557
G1 X156.614 Y56.084 E73.9912
G1 X157.054 Y56.446 E74.0268
G1 X157.416 Y56.886 E74.0623
G1 X157.684 Y57.388 E74.0977
G1 X157.849 Y57.933 E74.1333
G1 X157.905 Y58.500 E74.1688
G1 X157.849 Y59.067 E74.2043
G1 X157.684 Y59.612 E74.2398
G1 X157.416 Y60.114 E74.2753
G1 X157.054 Y60.554 E74.3108
G1 X156.614 Y60.915 E74.3463
G1 X156.112 Y61.184 E74.3819
G1 X155.567 Y61.349 E74.4174
G1 X155.000 Y61.405 E74.4529
G1 X154.433 Y61.349 E74.4884
G1 X153.888 Y61.184 E74.5239
G1 X153.386 Y60.915 E74.5594
G1 X152.946 Y60.554 E74.5949
G1 X152.584 Y60.114 E74.6305
G1 X152.558 Y60.065 E74.6339
G0 F3000 E73.6339
G0 X152.558 Y60.065 F7200
G0 X152.316 Y59.611
G0 X152.151 Y59.067
G0 X152.095 Y58.500
G0 X152.151 Y57.933
G0 X152.316 Y57.388
G0 X152.585 Y56.886
G0 X152.946 Y56.446
G0 X153.386 Y56.084
G0 X153.888 Y55.816
G0 X154.433 Y55.651
G0 X155.000 Y55.595
G0 X155.312 Y55.626
G0 X157.425 Y52.219
G0 F3000 E74.6339
;segType:HShell
G1 X158.559 Y51.085 E74.7339 F3059
G0 X158.559 Y51.934 F7200
G1 X155.401 Y55.092 E75.0124 F3059
G0 X155.219 Y54.426 F7200
G1 X154.548 Y55.097 E75.0716 F3059
G0 X153.252 Y55.543 F7200
G1 X154.438 Y54.357 E75.1762 F3059
G0 X155.412 Y53.225 F7200
;segType:Perimeter
G1 X155.000 Y53.307 E75.2024 F2159
G1 X154.500 Y53.207 E75.2342
G1 X154.076 Y52.924 E75.2660
G1 X153.793 Y52.500 E75.2978
G1 X153.694 Y52.000 E75.3296
G1 X153.793 Y51.500 E75.3613
G1 X154.076 Y51.076 E75.3931
G1 X154.500 Y50.793 E75.4249
G1 X155.000 Y50.694 E75.4567
G1 X155.500 Y50.793 E75.4885
G1 X155.924 Y51.076 E75.5203
G1 X156.207 Y51.500 E75.5521
G1 X156.306 Y52.000 E75.5839
G1 X156.207 Y52.500 E75.6156
G1 X155.924 Y52.924 E75.6474
G1 X155.575 Y53.157 E75.6736
G0 F3000 E74.6736
G0 X156.557 Y53.057 F7200
G0 X156.357 Y53.356
G0 X155.734 Y53.772
G0 X155.000 Y53.918
G0 X154.266 Y53.772
G0 X153.643 Y53.356
G0 X153.643 Y53.355
G0 X153.643 Y53.355
G0 F3000 E75.6736
;segType:Loop
G1 X153.228 Y52.734 E75.7202 F3600
G1 X153.082 Y52.000 E75.7669
G1 X153.228 Y51.266 E75.8136
G1 X153.644 Y50.644 E75.8602
G1 X154.266 Y50.228 E75.9069
G1 X155.000 Y50.082 E75.9536
G1 X155.734 Y50.228 E76.0003
G1 X156.356 Y50.644 E76.0469
G1 X156.772 Y51.266 E76.0936
G1 X156.918 Y52.000 E76.1403
G1 X156.772 Y52.734 E76.1870
G1 X156.357 Y53.356 E76.2336
G1 X155.734 Y53.772 E76.2803
G1 X155.000 Y53.918 E76.3270
G1 X154.266 Y53.772 E76.3737
G1 X153.892 Y53.522 E76.4017
G0 F3000 E75.4017
G0 X153.892 Y53.522 F7200
G0 X154.266 Y53.772
G0 X155.000 Y53.918
G0 X155.734 Y53.772
G0 X156.357 Y53.356
G0 X156.772 Y52.734
G0 X156.918 Y52.000
G0 X156.865 Y51.734
G0 X157.357 Y51.438
G0 F3000 E76.4017
;segType:HShell
G1 X158.559 Y50.237 E76.5077 F3059
G0 X158.559 Y49.388 F7200
G1 X157.125 Y50.822 E76.6342 F3059
G0 X156.785 Y50.313 F7200
G1 X158.559 Y48.540 E76.7906 F3059
G0 X157.809 Y48.441 F7200
G1 X156.296 Y49.954 E76.9241 F3059
G0 X155.726 Y49.675 F7200
G1 X156.961 Y48.441 E77.0330 F3059
G0 X156.112 Y48.441 F7200
G1 X155.018 Y49.535 E77.1295 F3059
G0 X153.845 Y49.859 F7200
G1 X155.264 Y48.441 E77.2546 F3059
G0 X154.415 Y48.441 F7200
G1 X151.441 Y51.415 E77.5169 F3059
G0 X151.441 Y50.567 F7200
G1 X153.567 Y48.441 E77.7044 F3059
G0 X152.718 Y48.441 F7200
G1 X151.441 Y49.718 E77.8170 F3059
G0 X151.441 Y48.869 F7200
G1 X151.870 Y48.441 E77.8548 F3059
G0 X152.859 Y50.846 F7200
G1 X151.441 Y52.264 E77.9799 F3059
G0 X151.441 Y53.112 F7200
G1 X152.535 Y52.018 E78.0764 F3059
G0 X152.675 Y52.726 F7200
G1 X151.441 Y53.961 E78.1852 F3059
G0 X152.954 Y53.296 F7200
G1 X149.422 Y56.828 E78.4967 F3059
G0 X153.848 Y61.736 F7200
G1 X148.652 Y66.932 E78.9550 F3059
G0 X147.803 Y66.932 F7200
G1 X153.270 Y61.466 E79.4371 F3059
G0 X152.775 Y61.112 F7200
G1 X146.955 Y66.932 E79.9504 F3059
G0 X146.106 Y66.932 F7200
G1 X152.354 Y60.684 E80.5014 F3059
G0 X152.008 Y60.182 F7200
G1 X145.258 Y66.932 E81.0968 F3059
G0 X144.409 Y66.932 F7200
G1 X151.747 Y59.595 E81.7439 F3059
G0 X151.592 Y58.901 F7200
G1 X143.561 Y66.932 E82.4522 F3059
G0 X142.712 Y66.932 F7200
G1 X151.597 Y58.047 E83.2358 F3059
G0 X152.044 Y56.752 F7200
G1 X141.864 Y66.932 E84.1336 F3059
G0 X140.600 Y66.880 F7200
;segType:InnerHair
G1 X140.429 Y66.957 E84.1421 F3059
G1 X140.257 Y67.034 E84.1475
G1 X140.328 Y67.002 E84.1502
G1 X140.495 Y66.927 E84.1596
G1 X140.662 Y66.852 E84.1718
G1 X140.600 Y66.880 E84.1760
G0 F3000 E83.1760
G0 X142.916 Y64.182 F7200
G0 F3000 E84.1760
;segType:HShell
G1 X153.313 Y53.785 E85.0929 F3059
G0 X156.095 Y55.246 F7200
G1 X158.559 Y52.782 E85.3102 F3059
G0 X158.559 Y53.631 F7200
G1 X156.682 Y55.508 E85.4758 F3059
G0 X157.184 Y55.854 F7200
G1 X158.559 Y54.479 E85.5970 F3059
G0 X158.926 Y54.961 F7200
G1 X157.612 Y56.275 E85.7129 F3059
G0 X157.966 Y56.770 F7200
G1 X159.324 Y55.411 E85.8328 F3059
G0 X159.723 Y55.861 F7200
G1 X158.236 Y57.348 E85.9639 F3059
G0 X158.402 Y58.031 F7200
G1 X160.121 Y56.311 E86.1155 F3059
G0 X160.519 Y56.762 F7200
G1 X158.411 Y58.870 E86.3014 F3059
G0 X158.042 Y60.088 F7200
G1 X160.918 Y57.212 E86.5551 F3059
G0 X161.316 Y57.662 F7200
G1 X152.046 Y66.932 E87.3726 F3059
G0 X152.894 Y66.932 F7200
G1 X161.714 Y58.112 E88.1505 F3059
G0 X162.112 Y58.563 F7200
G1 X153.743 Y66.932 E88.8886 F3059
G0 X154.591 Y66.932 F7200
G1 X162.511 Y59.013 E89.5871 F3059
G0 X162.909 Y59.463 F7200
G1 X155.440 Y66.932 E90.2458 F3059
G0 X156.289 Y66.932 F7200
G1 X163.307 Y59.913 E90.8648 F3059
G0 X163.706 Y60.364 F7200
G1 X157.137 Y66.932 E91.4441 F3059
G0 X157.986 Y66.932 F7200
G1 X164.104 Y60.814 E91.9837 F3059
G0 X164.502 Y61.264 F7200
G1 X158.834 Y66.932 E92.4836 F3059
G0 X159.683 Y66.932 F7200
G1 X164.901 Y61.714 E92.9438 F3059
G0 X165.299 Y62.165 F7200
G1 X160.531 Y66.932 E93.3643 F3059
G0 X161.380 Y66.932 F7200
G1 X165.697 Y62.615 E93.7450 F3059
G0 X166.095 Y63.065 F7200
G1 X162.228 Y66.932 E94.0861 F3059
G0 X163.077 Y66.932 F7200
G1 X166.494 Y63.515 E94.3875 F3059
G0 X166.892 Y63.966 F7200
G1 X163.925 Y66.932 E94.6491 F3059
G0 X164.774 Y66.932 F7200
G1 X167.290 Y64.416 E94.8710 F3059
G0 X167.689 Y64.866 F7200
G1 X165.622 Y66.932 E95.0532 F3059
G0 X166.471 Y66.932 F7200
G1 X168.087 Y65.316 E95.1958 F3059
G0 X168.485 Y65.766 F7200
G1 X167.319 Y66.932 E95.2986 F3059
G0 X168.168 Y66.932 F7200
G1 X168.883 Y66.217 E95.3617 F3059
G0 X169.400 Y66.880 F7200
;segType:InnerHair
G1 X169.571 Y66.957 E95.3701 F3059
G1 X169.743 Y67.034 E95.3755
G1 X169.757 Y67.040 E95.3759
G1 X169.590 Y66.965 E95.3838
G1 X169.422 Y66.890 E95.3946
G1 X169.255 Y66.815 E95.4082
G1 X169.400 Y66.880 E95.4179
G0 F3000 E94.4179
G0 X151.197 Y66.932 F7200
G0 F3000 E95.4179
;segType:HShell
G1 X156.588 Y61.542 E95.8932 F3059
G0 F3000 E94.8932
G0 X156.137 Y61.171 F7200
G0 X163.784 Y67.472
G0 X169.400 Y72.100
G0 F3000 E95.8932
;segType:Support
G1 X140.600 Y72.100 E97.4198 F5400
G1 X140.600 Y73.900 E97.5153
G1 X169.400 Y73.900 E99.0419
G1 X169.400 Y75.700 E99.1373
G1 X140.600 Y75.700 E100.6639
G0 X140.600 Y79.300 F7200
G1 X169.400 Y79.300 E102.1905 F5400
G1 X169.400 Y77.500 E102.2859
G1 X140.600 Y77.500 E103.8125
G0 X140.600 Y81.100 F7200
G1 X169.400 Y81.100 E105.3391 F5400
G1 X169.400 Y82.900 E105.4346
G1 X140.600 Y82.900 E106.9612
G1 X139.700 Y84.700 E107.0679
G1 X170.300 Y84.700 E108.6899
G1 X170.300 Y86.500 E108.7853
G1 X139.700 Y86.500 E110.4074
G1 X141.500 Y88.300 E110.5423
G1 X139.700 Y88.300 E110.6377
G1 X139.700 Y90.100 E110.7331
G1 X141.500 Y90.100 E110.8286
G1 X141.500 Y91.900 E110.9240
G1 X139.700 Y91.900 E111.0194
G1 X141.500 Y93.700 E111.1543
G1 X139.700 Y93.700 E111.2497
G1 X139.700 Y95.500 E111.3452
G1 X141.500 Y95.500 E111.4406
G1 X141.500 Y97.300 E111.5360
G1 X139.700 Y97.300 E111.6314
G1 X139.700 Y99.100 E111.7268
G1 X141.500 Y99.100 E111.8222
G1 X139.700 Y100.900 E111.9572
G1 X141.500 Y100.900 E112.0526
G1 X141.500 Y102.700 E112.1480
G1 X139.700 Y102.700 E112.2434
G1 X139.700 Y104.500 E112.3388
G1 X141.500 Y104.500 E112.4342
G1 X141.500 Y106.300 E112.5296
G1 X139.700 Y106.300 E112.6251
G1 X139.700 Y108.100 E112.7205
G1 X141.500 Y108.100 E112.8159
G1 X141.500 Y109.900 E112.9113
G1 X139.700 Y109.900 E113.0067
G1 X139.700 Y111.700 E113.1021
G1 X141.500 Y111.700 E113.1975
G1 X139.700 Y113.500 E113.3325
G1 X145.100 Y113.500 E113.6187
G1 X145.100 Y115.300 E113.7141
G1 X139.700 Y115.300 E114.0004
G0 F3000 E113.0004
G0 X144.100 Y124.300 F7200
G0 F3000 E114.0004
G1 X145.100 Y124.300 E114.0534 F5400
G1 X144.100 Y126.100 E114.1625
G1 X145.100 Y126.100 E114.2155
G1 X145.100 Y127.900 E114.3109
G1 X144.100 Y127.900 E114.3639
G1 X144.100 Y129.700 E114.4593
G1 X145.100 Y129.700 E114.5123
G0 F3000 E113.5123
G0 X158.416 Y141.173 F7200
G0 F3000 E114.5123
;segType:HShell
G1 X166.102 Y133.486 E115.1902 F3059
G0 X166.801 Y133.456 F7200
;segType:Perimeter
G1 X166.801 Y132.256 E115.2651 F2159
G1 X166.801 Y117.801 E116.1665
G1 X171.199 Y117.801 E116.4409
G1 X171.199 Y132.886 E117.3816
G1 X159.699 Y145.886 E118.4640
G1 X159.699 Y152.700 E118.8889
G1 X150.301 Y152.700 E119.4751
G1 X150.301 Y145.886 E119.9000
G1 X138.801 Y132.886 E120.9824
G1 X138.801 Y117.801 E121.9231
G1 X143.199 Y117.801 E122.1975
G1 X143.199 Y132.346 E123.1046
G1 X166.711 Y132.346 E124.5708
G0 F3000 E123.5708
G0 X166.460 Y132.946 F7200
G0 X167.401 Y132.946
G0 X167.401 Y130.696
G0 X167.401 Y130.696
G0 F3000 E124.5708
;segType:Loop
G1 X167.401 Y118.401 E125.3376 F3600
G1 X170.599 Y118.401 E125.5371
G1 X170.599 Y132.659 E126.4262
G1 X159.099 Y145.659 E127.5087
G1 X159.099 Y152.099 E127.9103
G1 X150.901 Y152.099 E128.4216
G1 X150.901 Y145.659 E128.8232
G1 X139.401 Y132.659 E129.9057
G1 X139.401 Y118.401 E130.7948
G1 X142.599 Y118.401 E130.9943
G1 X142.599 Y132.946 E131.9014
G1 X167.401 Y132.946 E133.4481
G1 X167.401 Y130.996 E133.5697
G0 X170.059 Y132.075 F7200
;segType:HShell
G1 X156.227 Y145.907 E134.7896 F3059
G0 X155.629 Y145.656 F7200
G1 X156.931 Y144.354 E134.9044 F3059
G0 X156.559 Y143.727 F7200
;segType:Perimeter
G1 X155.360 Y143.767 E134.9793 F2159
G1 X155.000 Y143.802 E135.0018
G1 X154.551 Y143.758 E135.0300
G1 X154.119 Y143.627 E135.0581
G1 X153.721 Y143.414 E135.0862
G1 X153.372 Y143.128 E135.1144
G1 X153.086 Y142.779 E135.1425
G1 X152.873 Y142.381 E135.1707
G1 X152.742 Y141.949 E135.1988
G1 X152.698 Y141.500 E135.2270
G1 X152.742 Y141.051 E135.2551
G1 X152.873 Y140.619 E135.2832
G1 X153.086 Y140.221 E135.3114
G1 X153.372 Y139.872 E135.3395
G1 X153.721 Y139.586 E135.3677
G1 X154.119 Y139.373 E135.3958
G1 X154.551 Y139.242 E135.4240
G1 X155.000 Y139.198 E135.4521
G1 X155.449 Y139.242 E135.4803
G1 X155.881 Y139.373 E135.5084
G1 X156.279 Y139.586 E135.5366
G1 X156.628 Y139.872 E135.5647
G1 X156.914 Y140.221 E135.5928
G1 X157.127 Y140.619 E135.6210
G1 X157.258 Y141.051 E135.6491
G1 X157.302 Y141.500 E135.6773
G1 X157.258 Y141.949 E135.7054
G1 X157.127 Y142.381 E135.7336
G1 X156.914 Y142.779 E135.7617
G1 X156.628 Y143.128 E135.7898
G1 X156.279 Y143.414 E135.8180
G1 X155.881 Y143.627 E135.8461
G1 X155.535 Y143.732 E135.8686
G0 X154.412 Y144.154 F7200
G0 X153.575 Y144.017
;segType:Loop
G1 X153.386 Y143.916 E135.8820 F3600
G1 X152.946 Y143.554 E135.9176
G1 X152.585 Y143.114 E135.9531
G1 X152.316 Y142.612 E135.9885
G1 X152.151 Y142.067 E136.0241
G1 X152.095 Y141.500 E136.0596
G1 X152.151 Y140.933 E136.0951
G1 X152.316 Y140.389 E136.1306
G1 X152.584 Y139.886 E136.1661
G1 X152.946 Y139.446 E136.2016
G1 X153.386 Y139.085 E136.2371
G1 X153.888 Y138.816 E136.2727
G1 X154.433 Y138.651 E136.3082
G1 X155.000 Y138.595 E136.3437
G1 X155.567 Y138.651 E136.3792
G1 X156.112 Y138.816 E136.4148
G1 X156.614 Y139.085 E136.4503
G1 X157.054 Y139.446 E136.4858
G1 X157.416 Y139.886 E136.5213
G1 X157.684 Y140.389 E136.5568
G1 X157.849 Y140.933 E136.5923
G1 X157.905 Y141.500 E136.6278
G1 X157.849 Y142.067 E136.6634
G1 X157.684 Y142.612 E136.6989
G1 X157.415 Y143.114 E136.7344
G1 X157.054 Y143.554 E136.7699
G1 X156.614 Y143.916 E136.8054
G1 X156.112 Y144.184 E136.8409
G1 X155.567 Y144.349 E136.8764
G1 X155.000 Y144.405 E136.9120
G1 X154.433 Y144.349 E136.9475
G1 X153.888 Y144.184 E136.9830
G1 X153.840 Y144.158 E136.9864
G0 F3000 E135.9864
G0 X153.840 Y144.158 F7200
G0 X153.888 Y144.184
G0 X154.433 Y144.349
G0 X155.000 Y144.405
G0 X155.567 Y144.349
G0 X156.112 Y144.184
G0 X156.614 Y143.916
G0 X157.054 Y143.554
G0 X157.415 Y143.114
G0 X157.684 Y142.612
G0 X157.849 Y142.067
G0 X157.884 Y141.711
G0 X166.463 Y136.519
G0 F3000 E136.9864
;segType:HShell
G1 X156.735 Y146.247 E137.8444 F3059
G0 X155.575 Y146.843 F7200
;segType:Perimeter
G1 X155.924 Y147.076 E137.8705 F2159
G1 X156.207 Y147.500 E137.9023
G1 X156.306 Y148.000 E137.9341
G1 X156.207 Y148.500 E137.9659
G1 X155.924 Y148.924 E137.9977
G1 X155.500 Y149.207 E138.0295
G1 X155.000 Y149.306 E138.0613
G1 X154.500 Y149.207 E138.0931
G1 X154.076 Y148.924 E138.1249
G1 X153.793 Y148.500 E138.1566
G1 X153.694 Y148.000 E138.1884
G1 X153.793 Y147.500 E138.2202
G1 X154.076 Y147.076 E138.2520
G1 X154.500 Y146.793 E138.2838
G1 X155.000 Y146.693 E138.3156
G1 X155.412 Y146.775 E138.3418
G0 X155.412 Y146.775 F7200
G0 X155.500 Y146.793
G0 X155.924 Y147.076
G0 X156.207 Y147.500
G0 X156.306 Y148.000
G0 X156.297 Y148.049
G0 X156.772 Y148.734
;segType:Loop
G1 X156.356 Y149.356 E138.3884 F3600
G1 X155.734 Y149.772 E138.4351
G1 X155.000 Y149.918 E138.4818
G1 X154.266 Y149.772 E138.5285
G1 X153.644 Y149.356 E138.5751
G1 X153.228 Y148.734 E138.6218
G1 X153.082 Y148.000 E138.6685
G1 X153.228 Y147.266 E138.7151
G1 X153.643 Y146.644 E138.7618
G1 X154.266 Y146.228 E138.8085
G1 X155.000 Y146.082 E138.8552
G1 X155.734 Y146.228 E138.9019
G1 X156.357 Y146.644 E138.9486
G1 X156.772 Y147.266 E138.9952
G1 X156.918 Y148.000 E139.0419
G1 X156.772 Y148.734 E139.0886
G0 X156.978 Y149.399 F7200
;segType:HShell
G1 X158.559 Y147.817 E139.2280 F3059
G0 X158.559 Y146.969 F7200
G1 X157.454 Y148.074 E139.3255 F3059
G0 X157.338 Y147.341 F7200
G1 X158.559 Y146.120 E139.4332 F3059
G0 X154.673 Y144.916 F7200
G1 X153.495 Y146.093 E139.5370 F3059
G0 X154.883 Y145.554 F7200
G1 X155.542 Y144.895 E139.5952 F3059
G0 X157.079 Y146.752 F7200
G1 X159.958 Y143.873 E139.8491 F3059
G0 X166.950 Y133.486 F7200
G1 X158.394 Y142.042 E140.6037 F3059
G0 X157.852 Y143.433 F7200
G1 X167.799 Y133.486 E141.4810 F3059
G0 X167.941 Y133.345 F7200
G1 X170.059 Y131.226 E141.6678 F3059
G0 X170.059 Y130.378 F7200
G1 X167.941 Y132.496 E141.8547 F3059
G0 X167.941 Y131.647 F7200
G1 X170.059 Y129.529 E142.0415 F3059
G0 X170.059 Y128.681 F7200
G1 X167.941 Y130.799 E142.2283 F3059
G0 X167.941 Y129.950 F7200
G1 X170.059 Y127.832 E142.4151 F3059
G0 X170.059 Y126.983 F7200
G1 X167.941 Y129.102 E142.6020 F3059
G0 X167.941 Y128.253 F7200
G1 X170.059 Y126.135 E142.7888 F3059
G0 X170.059 Y125.286 F7200
G1 X167.941 Y127.405 E142.9756 F3059
G0 X167.941 Y126.556 F7200
G1 X170.059 Y124.438 E143.1625 F3059
G0 X170.059 Y123.589 F7200
G1 X167.941 Y125.708 E143.3493 F3059
G0 X167.941 Y124.859 F7200
G1 X170.059 Y122.741 E143.5361 F3059
G0 X170.059 Y121.892 F7200
G1 X167.941 Y124.011 E143.7229 F3059
G0 X167.941 Y123.162 F7200
G1 X170.059 Y121.044 E143.9098 F3059
G0 X170.059 Y120.195 F7200
G1 X167.941 Y122.314 E144.0966 F3059
G0 X167.941 Y121.465 F7200
G1 X170.059 Y119.347 E144.2834 F3059
G0 X169.617 Y118.941 F7200
G1 X167.941 Y120.617 E144.4312 F3059
G0 X167.941 Y119.768 F7200
G1 X168.768 Y118.941 E144.5042 F3059
G0 F3000 E143.5042
G0 X167.401 Y118.941 F7200
G0 X167.401 Y132.946
G0 X142.599 Y132.946
G0 X142.599 Y118.941
G0 X140.767 Y118.941
G0 F3000 E144.5042
G1 X139.941 Y119.767 E144.5770 F3059
G0 X139.941 Y120.615 F7200
G1 X141.615 Y118.941 E144.7247 F3059
G0 X142.059 Y119.345 F7200
G1 X139.941 Y121.464 E144.9115 F3059
G0 X139.941 Y122.312 F7200
G1 X142.059 Y120.194 E145.0983 F3059
G0 X142.059 Y121.042 F7200
G1 X139.941 Y123.161 E145.2852 F3059
G0 X139.941 Y124.009 F7200
G1 X142.059 Y121.891 E145.4720 F3059
G0 X142.059 Y122.739 F7200
G1 X139.941 Y124.858 E145.6588 F3059
G0 X139.941 Y125.706 F7200
G1 X142.059 Y123.588 E145.8457 F3059
G0 X142.059 Y124.436 F7200
G1 X139.941 Y126.555 E146.0325 F3059
G0 X139.941 Y127.403 F7200
G1 X142.059 Y125.285 E146.2193 F3059
G0 X142.059 Y126.133 F7200
G1 X139.941 Y128.252 E146.4061 F3059
G0 X139.941 Y129.100 F7200
G1 X142.059 Y126.982 E146.5930 F3059
G0 X142.059 Y127.830 F7200
G1 X139.941 Y129.949 E146.7798 F3059
G0 X139.941 Y130.797 F7200
G1 X142.059 Y128.679 E146.9666 F3059
G0 X142.059 Y129.528 F7200
G1 X139.941 Y131.646 E147.1535 F3059
G0 X139.960 Y132.476 F7200
G1 X142.059 Y130.376 E147.3386 F3059
G0 X142.059 Y131.225 F7200
G1 X140.358 Y132.926 E147.4887 F3059
G0 X140.756 Y133.376 F7200
G1 X142.059 Y132.073 E147.6036 F3059
G0 X142.059 Y132.922 F7200
G1 X141.155 Y133.826 E147.6834 F3059
G0 X141.553 Y134.276 F7200
G1 X142.343 Y133.486 E147.7531 F3059
G0 X143.192 Y133.486 F7200
G1 X141.951 Y134.727 E147.8624 F3059
G0 X142.350 Y135.177 F7200
G1 X144.040 Y133.486 E148.0116 F3059
G0 X144.889 Y133.486 F7200
G1 X142.748 Y135.627 E148.2004 F3059
G0 X143.146 Y136.077 F7200
G1 X145.737 Y133.486 E148.4289 F3059
G0 X146.586 Y133.486 F7200
G1 X143.544 Y136.528 E148.6971 F3059
G0 X143.943 Y136.978 F7200
G1 X147.434 Y133.486 E149.0050 F3059
G0 X148.283 Y133.486 F7200
G1 X144.341 Y137.428 E149.3527 F3059
G0 X144.739 Y137.878 F7200
G1 X149.131 Y133.486 E149.7400 F3059
G0 X149.980 Y133.486 F7200
G1 X145.138 Y138.329 E150.1671 F3059
G0 X145.536 Y138.779 F7200
G1 X150.828 Y133.486 E150.6339 F3059
G0 X151.677 Y133.486 F7200
G1 X145.934 Y139.229 E151.1404 F3059
G0 X146.332 Y139.679 F7200
G1 X152.525 Y133.486 E151.6865 F3059
G0 X153.374 Y133.486 F7200
G1 X146.731 Y140.130 E152.2724 F3059
G0 X147.129 Y140.580 F7200
G1 X154.222 Y133.486 E152.8980 F3059
G0 X155.071 Y133.486 F7200
G1 X147.527 Y141.030 E153.5634 F3059
G0 X147.926 Y141.480 F7200
G1 X155.920 Y133.486 E154.2684 F3059
G0 X156.768 Y133.486 F7200
G1 X148.324 Y141.931 E155.0131 F3059
G0 X148.722 Y142.381 F7200
G1 X157.617 Y133.486 E155.7975 F3059
G0 X158.465 Y133.486 F7200
G1 X153.587 Y138.365 E156.2278 F3059
G0 X154.720 Y138.080 F7200
G1 X159.314 Y133.486 E156.6329 F3059
G0 X160.162 Y133.486 F7200
G1 X155.543 Y138.106 E157.0403 F3059
G0 X156.214 Y138.283 F7200
G1 X161.011 Y133.486 E157.4633 F3059
G0 X161.859 Y133.486 F7200
G1 X156.783 Y138.563 E157.9110 F3059
G0 X157.270 Y138.924 F7200
G1 X162.708 Y133.486 E158.3906 F3059
G0 X163.556 Y133.486 F7200
G1 X157.683 Y139.360 E158.9086 F3059
G0 X158.020 Y139.871 F7200
G1 X164.405 Y133.486 E159.4717 F3059
G0 X165.253 Y133.486 F7200
G1 X158.272 Y140.467 E160.0874 F3059
G0 F3000 E159.0874
G0 X157.697 Y140.433 F7200
G0 X157.684 Y140.389
G0 X157.416 Y139.886
G0 X157.054 Y139.446
G0 X156.614 Y139.085
G0 X156.112 Y138.816
G0 X155.567 Y138.651
G0 X155.000 Y138.595
G0 X154.433 Y138.651
G0 X153.888 Y138.816
G0 X153.386 Y139.085
G0 X152.946 Y139.446
G0 X152.584 Y139.886
G0 X152.459 Y140.121
G0 X151.866 Y140.086
G0 F3000 E160.0874
G1 X149.120 Y142.831 E160.3295 F3059
G0 X149.519 Y143.281 F7200
G1 X151.580 Y141.220 E160.5112 F3059
G0 X151.606 Y142.043 F7200
G1 X149.917 Y143.732 E160.6602 F3059
G0 X150.315 Y144.182 F7200
G1 X151.783 Y142.714 E160.7896 F3059
G0 X152.063 Y143.283 F7200
G1 X150.714 Y144.632 E160.9086 F3059
G0 X151.112 Y145.082 F7200
G1 X152.424 Y143.770 E161.0243 F3059
G0 X152.860 Y144.183 F7200
G1 X151.441 Y145.602 E161.1495 F3059
G0 X151.441 Y146.450 F7200
G1 X153.371 Y144.520 E161.3197 F3059
G0 X153.967 Y144.772 F7200
G1 X151.441 Y147.299 E161.5425 F3059
G0 X151.441 Y148.147 F7200
G1 X153.093 Y146.495 E161.6882 F3059
G0 X152.554 Y147.882 F7200
G1 X151.441 Y148.996 E161.7864 F3059
G0 X151.441 Y149.844 F7200
G1 X152.656 Y148.629 E161.8936 F3059
G0 X152.907 Y149.227 F7200
G1 X151.441 Y150.693 E162.0229 F3059
G0 X151.441 Y151.541 F7200
G1 X153.247 Y149.735 E162.1822 F3059
G0 X153.752 Y150.079 F7200
G1 X152.272 Y151.559 E162.3128 F3059
G0 X153.120 Y151.559 F7200
G1 X154.341 Y150.338 E162.4205 F3059
G0 X155.074 Y150.454 F7200
G1 X153.969 Y151.559 E162.5180 F3059
G0 X154.817 Y151.559 F7200
G1 X156.399 Y149.978 E162.6575 F3059
G0 X157.363 Y151.559 F7200
G1 X158.559 Y150.363 E162.7630 F3059
G0 X158.559 Y149.514 F7200
G1 X156.514 Y151.559 E162.9433 F3059
G0 X155.666 Y151.559 F7200
G1 X158.559 Y148.666 E163.1985 F3059
G0 F3000 E162.1985
G0 X164.900 Y129.700 F7200
G0 F3000 E163.1985
;segType:Support
G1 X165.900 Y129.700 E163.2515 F5400
G1 X164.900 Y127.900 E163.3607
G1 X165.900 Y127.900 E163.4137
G1 X165.900 Y126.100 E163.5091
G1 X164.900 Y126.100 E163.5621
G1 X164.900 Y124.300 E163.6575
G1 X165.900 Y124.300 E163.7105
G0 F3000 E162.7105
G0 X170.300 Y115.300 F7200
G0 F3000 E163.7105
G1 X164.900 Y115.300 E163.9967 F5400
G1 X164.900 Y113.500 E164.0921
G1 X170.300 Y113.500 E164.3784
G1 X170.300 Y111.700 E164.4738
G1 X168.500 Y111.700 E164.5692
G1 X168.500 Y109.900 E164.6646
G1 X170.300 Y109.900 E164.7600
G1 X168.500 Y108.100 E164.8949
G1 X170.300 Y108.100 E164.9904
G1 X170.300 Y106.300 E165.0858
G1 X168.500 Y106.300 E165.1812
G1 X168.500 Y104.500 E165.2766
G1 X170.300 Y104.500 E165.3720
G1 X170.300 Y102.700 E165.4674
G1 X168.500 Y102.700 E165.5628
G1 X168.500 Y100.900 E165.6583
G1 X170.300 Y100.900 E165.7537
G1 X170.300 Y99.100 E165.8491
G1 X168.500 Y99.100 E165.9445
G1 X168.500 Y97.300 E166.0399
G1 X170.300 Y97.300 E166.1353
G1 X170.300 Y95.500 E166.2307
G1 X168.500 Y95.500 E166.3261
G0 X170.300 Y88.300 F7200
G1 X168.500 Y88.300 E166.4216 F5400
G1 X168.500 Y90.100 E166.5170
G1 X170.300 Y90.100 E166.6124
G1 X170.300 Y91.900 E166.7078
G1 X168.500 Y91.900 E166.8032
G1 X168.500 Y93.700 E166.8986
G1 X170.300 Y93.700 E166.9940
G0 X175.700 Y93.700 F7200
G1 X177.500 Y93.700 E167.0895 F5400
G1 X177.500 Y95.500 E167.1849
G1 X175.700 Y95.500 E167.2803
G1 X175.700 Y97.300 E167.3757
G1 X177.500 Y97.300 E167.4711
G1 X177.500 Y99.100 E167.5665
G1 X175.700 Y99.100 E167.6619
G1 X177.500 Y100.900 E167.7969
G1 X175.700 Y100.900 E167.8923
G1 X175.700 Y102.700 E167.9877
G1 X177.500 Y102.700 E168.0831
G1 X177.500 Y104.500 E168.1785
G1 X175.700 Y104.500 E168.2739
G1 X177.500 Y106.300 E168.4089
G1 X175.700 Y106.300 E168.5043
G1 X175.700 Y108.100 E168.5997
G1 X177.500 Y108.100 E168.6951
G1 X177.500 Y109.900 E168.7905
G1 X175.700 Y109.900 E168.8859
G1 X175.700 Y111.700 E168.9813
G1 X177.500 Y111.700 E169.0768
G0 X181.100 Y113.500 F7200
G1 X175.700 Y113.500 E169.3630 F5400
G1 X175.700 Y115.300 E169.4584
G1 X181.100 Y115.300 E169.7447
G0 X184.700 Y127.900 F7200
G1 X182.900 Y127.900 E169.8401 F5400
G1 X182.900 Y129.700 E169.9355
G1 X184.700 Y129.700 E170.0309
G0 F3000 E169.0309
G0 X196.432 Y141.340 F7200
G0 F3000 E170.0309
;segType:HShell
G1 X204.286 Y133.486 E170.7235 F3059
G0 X204.801 Y133.456 F7200
;segType:Perimeter
G1 X204.801 Y132.256 E170.7984 F2159
G1 X204.801 Y117.801 E171.6999
G1 X209.199 Y117.801 E171.9742
G1 X209.199 Y132.886 E172.9150
G1 X197.699 Y145.886 E173.9974
G1 X197.699 Y152.700 E174.4223
G1 X188.301 Y152.700 E175.0084
G1 X188.301 Y145.886 E175.4333
G1 X176.801 Y132.886 E176.5157
G1 X176.801 Y117.801 E177.4565
G1 X181.199 Y117.801 E177.7308
G1 X181.199 Y132.346 E178.6379
G1 X204.711 Y132.346 E180.1041
G0 F3000 E179.1041
G0 X204.460 Y132.946 F7200
G0 X205.401 Y132.946
G0 X205.401 Y130.696
G0 X205.401 Y130.696
G0 F3000 E180.1041
;segType:Loop
G1 X205.401 Y118.401 E180.8709 F3600
G1 X208.599 Y118.401 E181.0704
G1 X208.599 Y132.659 E181.9596
G1 X197.099 Y145.659 E183.0420
G1 X197.099 Y152.099 E183.4437
G1 X188.901 Y152.099 E183.9549
G1 X188.901 Y145.659 E184.3566
G1 X177.401 Y132.659 E185.4390
G1 X177.401 Y118.401 E186.3282
G1 X180.599 Y118.401 E186.5277
G1 X180.599 Y132.946 E187.4348
G1 X205.401 Y132.946 E188.9814
G1 X205.401 Y130.996 E189.1030
G0 F3000 E188.1030
G0 X205.401 Y130.996 F7200
G0 X205.401 Y132.946
G0 X202.243 Y132.946
G0 X202.243 Y132.946
G0 X193.083 Y138.603
G0 X193.083 Y138.603
G0 X190.377 Y140.274
G0 X190.377 Y140.274
G0 X186.342 Y142.766
G0 X186.808 Y142.478
G0 F3000 E189.1030
;segType:HShell
G1 X195.800 Y133.486 E189.8961 F3059
G0 X196.649 Y133.486 F7200
G1 X191.882 Y138.254 E190.3165 F3059
G0 X191.741 Y139.263 F7200
;segType:Perimeter
G1 X192.640 Y139.233 E190.3726 F2159
G1 X193.000 Y139.198 E190.3952
G1 X193.449 Y139.242 E190.4233
G1 X193.881 Y139.373 E190.4515
G1 X194.279 Y139.586 E190.4796
G1 X194.628 Y139.872 E190.5078
G1 X194.914 Y140.221 E190.5359
G1 X195.127 Y140.619 E190.5640
G1 X195.258 Y141.051 E190.5922
G1 X195.302 Y141.500 E190.6203
G1 X195.258 Y141.949 E190.6485
G1 X195.127 Y142.381 E190.6766
G1 X194.914 Y142.779 E190.7047
G1 X194.628 Y143.128 E190.7329
G1 X194.279 Y143.414 E190.7611
G1 X193.881 Y143.627 E190.7892
G1 X193.449 Y143.758 E190.8173
G1 X193.000 Y143.802 E190.8455
G1 X192.551 Y143.758 E190.8736
G1 X192.119 Y143.627 E190.9018
G1 X191.721 Y143.414 E190.9299
G1 X191.372 Y143.128 E190.9581
G1 X191.086 Y142.779 E190.9862
G1 X190.873 Y142.381 E191.0143
G1 X190.742 Y141.949 E191.0425
G1 X190.698 Y141.500 E191.0707
G1 X190.742 Y141.051 E191.0988
G1 X190.873 Y140.619 E191.1269
G1 X191.086 Y140.221 E191.1551
G1 X191.372 Y139.872 E191.1832
G1 X191.721 Y139.586 E191.2114
G1 X192.119 Y139.373 E191.2395
G1 X192.465 Y139.268 E191.2620
G0 X193.588 Y138.846 F7200
G0 X194.425 Y138.984
;segType:Loop
G1 X194.614 Y139.085 E191.2754 F3600
G1 X195.054 Y139.446 E191.3109
G1 X195.416 Y139.886 E191.3465
G1 X195.684 Y140.389 E191.3819
G1 X195.849 Y140.933 E191.4174
G1 X195.905 Y141.500 E191.4530
G1 X195.849 Y142.067 E191.4885
G1 X195.684 Y142.612 E191.5240
G1 X195.415 Y143.114 E191.5595
G1 X195.054 Y143.554 E191.5950
G1 X194.614 Y143.916 E191.6305
G1 X194.112 Y144.184 E191.6661
G1 X193.567 Y144.349 E191.7016
G1 X193.000 Y144.405 E191.7371
G1 X192.433 Y144.349 E191.7726
G1 X191.888 Y144.184 E191.8081
G1 X191.386 Y143.916 E191.8436
G1 X190.946 Y143.554 E191.8792
G1 X190.585 Y143.114 E191.9147
G1 X190.316 Y142.612 E191.9501
G1 X190.151 Y142.067 E191.9857
G1 X190.095 Y141.500 E192.0212
G1 X190.151 Y140.933 E192.0567
G1 X190.316 Y140.389 E192.0922
G1 X190.584 Y139.886 E192.1277
G1 X190.946 Y139.446 E192.1632
G1 X191.386 Y139.085 E192.1987
G1 X191.888 Y138.816 E192.2342
G1 X192.433 Y138.651 E192.2698
G1 X193.000 Y138.595 E192.3053
G1 X193.567 Y138.651 E192.3408
G1 X194.112 Y138.816 E192.3763
G1 X194.161 Y138.842 E192.3798
G0 F3000 E191.3798
G0 X194.161 Y138.842 F7200
G0 X194.614 Y139.085
G0 X195.054 Y139.446
G0 X195.416 Y139.886
G0 X195.684 Y140.389
G0 X195.849 Y140.933
G0 X195.905 Y141.500
G0 X195.849 Y142.067
G0 X195.684 Y142.612
G0 X195.415 Y143.114
G0 X195.312 Y143.240
G0 X196.559 Y148.001
G0 F3000 E192.3798
;segType:HShell
G1 X193.001 Y151.559 E192.6936 F3059
G0 X192.152 Y151.559 F7200
G1 X193.303 Y150.409 E192.7951 F3059
G0 X192.495 Y150.368 F7200
G1 X191.304 Y151.559 E192.9001 F3059
G0 X190.455 Y151.559 F7200
G1 X191.862 Y150.152 E193.0242 F3059
G0 X192.425 Y149.157 F7200
;segType:Perimeter
G1 X192.076 Y148.924 E193.0504 F2159
G1 X191.793 Y148.500 E193.0821
G1 X191.694 Y148.000 E193.1139
G1 X191.793 Y147.500 E193.1457
G1 X192.076 Y147.076 E193.1775
G1 X192.500 Y146.793 E193.2093
G1 X193.000 Y146.693 E193.2411
G1 X193.500 Y146.793 E193.2729
G1 X193.924 Y147.076 E193.3047
G1 X194.207 Y147.500 E193.3365
G1 X194.306 Y148.000 E193.3683
G1 X194.207 Y148.500 E193.4000
G1 X193.924 Y148.924 E193.4318
G1 X193.500 Y149.207 E193.4636
G1 X193.000 Y149.306 E193.4954
G1 X192.588 Y149.224 E193.5216
G0 F3000 E192.5216
G0 X193.354 Y149.848 F7200
G0 X193.000 Y149.918
G0 X192.266 Y149.772
G0 X191.644 Y149.356
G0 X191.228 Y148.734
G0 X191.082 Y148.000
G0 X191.082 Y147.998
G0 X191.082 Y147.998
G0 F3000 E193.5216
;segType:Loop
G1 X191.228 Y147.266 E193.5682 F3600
G1 X191.643 Y146.644 E193.6148
G1 X192.266 Y146.228 E193.6615
G1 X193.000 Y146.082 E193.7082
G1 X193.734 Y146.228 E193.7549
G1 X194.357 Y146.644 E193.8016
G1 X194.772 Y147.266 E193.8483
G1 X194.918 Y148.000 E193.8949
G1 X194.772 Y148.734 E193.9416
G1 X194.356 Y149.356 E193.9883
G1 X193.734 Y149.772 E194.0349
G1 X193.000 Y149.918 E194.0816
G1 X192.266 Y149.772 E194.1283
G1 X191.644 Y149.356 E194.1750
G1 X191.228 Y148.734 E194.2216
G1 X191.140 Y148.293 E194.2497
G0 F3000 E193.2497
G0 X191.140 Y148.293 F7200
G0 X191.228 Y148.734
G0 X191.644 Y149.356
G0 X192.266 Y149.772
G0 X193.000 Y149.918
G0 X193.734 Y149.772
G0 X194.356 Y149.356
G0 X194.772 Y148.734
G0 X194.786 Y148.667
G0 X194.786 Y148.667
G0 X197.099 Y148.905
G0 X196.559 Y148.850
G0 F3000 E194.2497
;segType:HShell
G1 X193.849 Y151.559 E194.4887 F3059
G0 X194.698 Y151.559 F7200
G1 X196.559 Y149.698 E194.6528 F3059
G0 X196.559 Y150.547 F7200
G1 X195.547 Y151.559 E194.7421 F3059
G0 X191.354 Y149.812 F7200
G1 X189.607 Y151.559 E194.8962 F3059
G0 X189.441 Y150.877 F7200
G1 X190.981 Y149.337 E195.0320 F3059
G0 X190.687 Y148.782 F7200
G1 X189.441 Y150.028 E195.1419 F3059
G0 X189.441 Y149.180 F7200
G1 X190.546 Y148.075 E195.2393 F3059
G0 X190.724 Y147.048 F7200
G1 X189.441 Y148.331 E195.3524 F3059
G0 X189.441 Y147.483 F7200
G1 X192.108 Y144.815 E195.5877 F3059
G0 X191.491 Y144.584 F7200
G1 X189.441 Y146.634 E195.7685 F3059
G0 X189.441 Y145.785 F7200
G1 X190.961 Y144.266 E195.9025 F3059
G0 X190.507 Y143.871 F7200
G1 X189.198 Y145.180 E196.0180 F3059
G0 X188.800 Y144.730 F7200
G1 X190.127 Y143.403 E196.1350 F3059
G0 X189.831 Y142.850 F7200
G1 X188.402 Y144.279 E196.2610 F3059
G0 X188.003 Y143.829 F7200
G1 X189.628 Y142.204 E196.4043 F3059
G0 X189.560 Y141.424 F7200
G1 X187.605 Y143.379 E196.5767 F3059
G0 X187.207 Y142.929 F7200
G1 X189.754 Y140.381 E196.8014 F3059
G0 X192.924 Y138.060 F7200
G1 X197.497 Y133.486 E197.2047 F3059
G0 X198.346 Y133.486 F7200
G1 X193.704 Y138.128 E197.6141 F3059
G0 X194.350 Y138.331 F7200
G1 X199.194 Y133.486 E198.0413 F3059
G0 X200.043 Y133.486 F7200
G1 X194.903 Y138.627 E198.4947 F3059
G0 X195.371 Y139.007 F7200
G1 X200.892 Y133.486 E198.9815 F3059
G0 X201.740 Y133.486 F7200
G1 X195.765 Y139.461 E199.5085 F3059
G0 X196.084 Y139.991 F7200
G1 X202.589 Y133.486 E200.0822 F3059
G0 X203.437 Y133.486 F7200
G1 X196.315 Y140.608 E200.7103 F3059
G0 X203.055 Y138.111 F7200
G1 X194.812 Y146.354 E201.4372 F3059
G0 X195.152 Y146.862 F7200
G1 X196.559 Y145.456 E201.5613 F3059
G0 X196.559 Y146.304 F7200
G1 X195.368 Y147.495 E201.6663 F3059
G0 X195.409 Y148.303 F7200
G1 X196.559 Y147.153 E201.7677 F3059
G0 X193.768 Y144.853 F7200
G0 X193.909 Y145.135
G1 X192.445 Y145.327 E201.8291 F3059
G0 X196.353 Y142.268 F7200
G1 X205.134 Y133.486 E202.6036 F3059
G0 X208.059 Y132.258 F7200
G1 X194.337 Y145.981 E203.8139 F3059
G0 X193.783 Y145.686 F7200
G1 X208.059 Y131.410 E205.0730 F3059
G0 X208.059 Y130.561 F7200
G1 X205.941 Y132.680 E205.2598 F3059
G0 X205.941 Y131.831 F7200
G1 X208.059 Y129.713 E205.4466 F3059
G0 X208.059 Y128.864 F7200
G1 X205.941 Y130.983 E205.6335 F3059
G0 X205.941 Y130.134 F7200
G1 X208.059 Y128.016 E205.8203 F3059
G0 X208.059 Y127.167 F7200
G1 X205.941 Y129.286 E206.0071 F3059
G0 X205.941 Y128.437 F7200
G1 X208.059 Y126.319 E206.1939 F3059
G0 X208.059 Y125.470 F7200
G1 X205.941 Y127.589 E206.3808 F3059
G0 X205.941 Y126.740 F7200
G1 X208.059 Y124.622 E206.5676 F3059
G0 X208.059 Y123.773 F7200
G1 X205.941 Y125.892 E206.7544 F3059
G0 X205.941 Y125.043 F7200
G1 X208.059 Y122.925 E206.9413 F3059
G0 X208.059 Y122.076 F7200
G1 X205.941 Y124.195 E207.1281 F3059
G0 X205.941 Y123.346 F7200
G1 X208.059 Y121.228 E207.3149 F3059
G0 X208.059 Y120.379 F7200
G1 X205.941 Y122.497 E207.5017 F3059
G0 X205.941 Y121.649 F7200
G1 X208.059 Y119.530 E207.6886 F3059
G0 X207.800 Y118.941 F7200
G1 X205.941 Y120.800 E207.8526 F3059
G0 X205.941 Y119.952 F7200
G1 X206.952 Y118.941 E207.9418 F3059
G0 F3000 E206.9418
G0 X205.401 Y118.941 F7200
G0 X205.401 Y132.946
G0 X180.599 Y132.946
G0 X180.599 Y118.941
G0 X178.950 Y118.941
G0 F3000 E207.9418
G1 X177.941 Y119.950 E208.0308 F3059
G0 X177.941 Y120.799 F7200
G1 X179.799 Y118.941 E208.1947 F3059
G0 X180.059 Y119.529 F7200
G1 X177.941 Y121.647 E208.3815 F3059
G0 X177.941 Y122.496 F7200
G1 X180.059 Y120.377 E208.5683 F3059
G0 X180.059 Y121.226 F7200
G1 X177.941 Y123.344 E208.7552 F3059
G0 X177.941 Y124.193 F7200
G1 X180.059 Y122.075 E208.9420 F3059
G0 X180.059 Y122.923 F7200
G1 X177.941 Y125.042 E209.1288 F3059
G0 X177.941 Y125.890 F7200
G1 X180.059 Y123.772 E209.3156 F3059
G0 X180.059 Y124.620 F7200
G1 X177.941 Y126.739 E209.5025 F3059
G0 X177.941 Y127.587 F7200
G1 X180.059 Y125.469 E209.6893 F3059
G0 X180.059 Y126.317 F7200
G1 X177.941 Y128.436 E209.8761 F3059
G0 X177.941 Y129.284 F7200
G1 X180.059 Y127.166 E210.0630 F3059
G0 X180.059 Y128.014 F7200
G1 X177.941 Y130.133 E210.2498 F3059
G0 X177.941 Y130.981 F7200
G1 X180.059 Y128.863 E210.4366 F3059
G0 X180.059 Y129.711 F7200
G1 X177.941 Y131.830 E210.6235 F3059
G0 X178.046 Y132.573 F7200
G1 X180.059 Y130.560 E210.8010 F3059
G0 X180.059 Y131.408 F7200
G1 X178.444 Y133.023 E210.9434 F3059
G0 X178.843 Y133.474 F7200
G1 X180.059 Y132.257 E211.0507 F3059
G0 X180.059 Y133.105 F7200
G1 X179.241 Y133.924 E211.1229 F3059
G0 X179.639 Y134.374 F7200
G1 X180.527 Y133.486 E211.2012 F3059
G0 X181.375 Y133.486 F7200
G1 X180.037 Y134.824 E211.3192 F3059
G0 X180.436 Y135.274 F7200
G1 X182.224 Y133.486 E211.4769 F3059
G0 X183.072 Y133.486 F7200
G1 X180.834 Y135.725 E211.6743 F3059
G0 X181.232 Y136.175 F7200
G1 X183.921 Y133.486 E211.9114 F3059
G0 X184.769 Y133.486 F7200
G1 X181.631 Y136.625 E212.1883 F3059
G0 X182.029 Y137.075 F7200
G1 X185.618 Y133.486 E212.5048 F3059
G0 X186.467 Y133.486 F7200
G1 X182.427 Y137.526 E212.8611 F3059
G0 X182.826 Y137.976 F7200
G1 X187.315 Y133.486 E213.2570 F3059
G0 X188.164 Y133.486 F7200
G1 X183.224 Y138.426 E213.6927 F3059
G0 X183.622 Y138.876 F7200
G1 X189.012 Y133.486 E214.1680 F3059
G0 X189.861 Y133.486 F7200
G1 X184.020 Y139.327 E214.6831 F3059
G0 X184.419 Y139.777 F7200
G1 X190.709 Y133.486 E215.2379 F3059
G0 X191.558 Y133.486 F7200
G1 X184.817 Y140.227 E215.8324 F3059
G0 X185.215 Y140.677 F7200
G1 X192.406 Y133.486 E216.4666 F3059
G0 X193.255 Y133.486 F7200
G1 X185.614 Y141.128 E217.1405 F3059
G0 X186.012 Y141.578 F7200
G1 X194.103 Y133.486 E217.8542 F3059
G0 X194.952 Y133.486 F7200
G1 X186.410 Y142.028 E218.6075 F3059
G0 F3000 E217.6075
G0 X185.999 Y142.378 F7200
G0 X197.085 Y132.946
G0 X200.900 Y129.700
G0 F3000 E218.6075
;segType:Support
G1 X202.700 Y129.700 E218.7029 F5400
G1 X200.900 Y127.900 E218.8378
G1 X202.700 Y127.900 E218.9332
G0 F3000 E217.9332
G0 X209.900 Y115.300 F7200
G0 F3000 E218.9332
G1 X204.500 Y115.300 E219.2195 F5400
G1 X204.500 Y113.500 E219.3149
G1 X209.900 Y113.500 E219.6011
G1 X208.100 Y111.700 E219.7361
G1 X209.900 Y111.700 E219.8315
G1 X209.900 Y109.900 E219.9269
G1 X208.100 Y109.900 E220.0223
G1 X208.100 Y108.100 E220.1177
G1 X209.900 Y108.100 E220.2131
G1 X209.900 Y106.300 E220.3085
G1 X208.100 Y106.300 E220.4040
G1 X209.900 Y104.500 E220.5389
G1 X208.100 Y104.500 E220.6343
G1 X208.100 Y102.700 E220.7297
G1 X209.900 Y102.700 E220.8251
G1 X209.900 Y100.900 E220.9205
G1 X208.100 Y100.900 E221.0160
G1 X208.100 Y99.100 E221.1114
G1 X209.900 Y99.100 E221.2068
G1 X209.900 Y97.300 E221.3022
G1 X208.100 Y97.300 E221.3976
G1 X208.100 Y95.500 E221.4930
G1 X209.900 Y95.500 E221.5884
G1 X209.900 Y93.700 E221.6839
G1 X208.100 Y93.700 E221.7793
G1 X208.100 Y91.900 E221.8747
G1 X209.900 Y91.900 E221.9701
G1 X209.900 Y90.100 E222.0655
G1 X208.100 Y90.100 E222.1609
G1 X208.100 Y88.300 E222.2563
G1 X209.900 Y88.300 E222.3517
G1 X209.900 Y86.500 E222.4472
G1 X175.700 Y86.500 E224.2600
G1 X175.700 Y88.300 E224.3555
G1 X177.500 Y88.300 E224.4509
; ------------------------------------
; Layer #2
; ------------------------------------
M106 S0 ;turn off fan
G92 E0 ;reset extr
G0 F3000 E-1.0000
G0 F1200 Z0.750
G0 X141.500 Y104.500 F7200
G0 F3000 E0.0000
;segType:Support
G1 X139.700 Y104.500 E0.0954 F5400
G1 X139.700 Y102.700 E0.1908
G1 X141.500 Y102.700 E0.2862
G1 X141.500 Y100.900 E0.3817
G1 X139.700 Y100.900 E0.4771
G1 X139.700 Y99.100 E0.5725
G1 X141.500 Y99.100 E0.6679
G1 X141.500 Y97.300 E0.7633
G1 X139.700 Y97.300 E0.8587
G1 X139.700 Y95.500 E0.9542
G1 X141.500 Y95.500 E1.0496
G1 X141.500 Y93.700 E1.1450
G1 X139.700 Y93.700 E1.2404
G1 X141.500 Y91.900 E1.3753
G1 X139.700 Y91.900 E1.4707
G1 X139.700 Y90.100 E1.5662
G1 X141.500 Y90.100 E1.6616
G1 X141.500 Y88.300 E1.7570
G1 X139.700 Y88.300 E1.8524
G0 X140.600 Y82.900 F7200
G1 X169.400 Y82.900 E3.3790 F5400
G1 X169.400 Y81.100 E3.4744
G1 X140.600 Y81.100 E5.0011
G0 X140.600 Y77.500 F7200
G1 X169.400 Y77.500 E6.5277 F5400
G1 X169.400 Y75.700 E6.6231
G1 X140.600 Y75.700 E8.1497
G0 X140.600 Y79.300 F7200
G1 X169.400 Y79.300 E9.6763 F5400
G0 X170.300 Y84.700 F7200
G1 X139.700 Y84.700 E11.2984 F5400
G1 X139.700 Y86.500 E11.3938
G1 X170.300 Y86.500 E13.0158
G1 X168.500 Y88.300 E13.1508
G1 X170.300 Y88.300 E13.2462
G1 X170.300 Y90.100 E13.3416
G1 X168.500 Y90.100 E13.4370
G1 X168.500 Y91.900 E13.5324
G1 X170.300 Y91.900 E13.6278
G1 X170.300 Y93.700 E13.7233
G1 X168.500 Y93.700 E13.8187
G1 X168.500 Y95.500 E13.9141
G1 X170.300 Y95.500 E14.0095
G1 X168.500 Y97.300 E14.1444
G1 X170.300 Y97.300 E14.2399
G1 X170.300 Y99.100 E14.3353
G1 X168.500 Y99.100 E14.4307
G1 X168.500 Y100.900 E14.5261
G1 X170.300 Y100.900 E14.6215
G0 X175.700 Y100.900 F7200
G1 X177.500 Y100.900 E14.7169 F5400
G1 X177.500 Y99.100 E14.8123
G1 X175.700 Y99.100 E14.9078
G1 X175.700 Y97.300 E15.0032
G1 X177.500 Y97.300 E15.0986
G1 X177.500 Y95.500 E15.1940
G1 X175.700 Y95.500 E15.2894
G1 X175.700 Y93.700 E15.3848
G1 X177.500 Y93.700 E15.4803
G1 X177.500 Y91.900 E15.5757
G1 X175.700 Y91.900 E15.6711
G1 X175.700 Y90.100 E15.7665
G1 X177.500 Y90.100 E15.8619
G1 X177.500 Y88.300 E15.9573
G1 X175.700 Y88.300 E16.0527
G1 X175.700 Y86.500 E16.1482
G1 X209.900 Y86.500 E17.9610
G1 X209.900 Y84.700 E18.0565
G1 X175.700 Y84.700 E19.8693
G0 F3000 E18.8693
G0 X179.300 Y79.300 F7200
G0 F3000 E19.8693
G1 X206.300 Y79.300 E21.3006 F5400
G1 X206.300 Y77.500 E21.3960
G1 X179.300 Y77.500 E22.8272
G1 X179.300 Y75.700 E22.9226
G1 X206.300 Y75.700 E24.3539
G1 X206.300 Y73.900 E24.4493
G1 X179.300 Y73.900 E25.8805
G0 F3000 E24.8805
G0 X169.400 Y73.900 F7200
G0 F3000 E25.8805
G1 X140.600 Y73.900 E27.4071 F5400
G1 X140.600 Y72.100 E27.5025
G1 X169.400 Y72.100 E29.0291
G0 F3000 E28.0291
G0 X170.301 Y72.290 F7200
G0 X170.301 Y68.072
G0 X150.278 Y68.072
G0 X144.864 Y66.932
G0 F3000 E29.0291
;segType:HShell
G1 X142.540 Y64.608 E29.2341 F3059
G0 X142.142 Y65.058 F7200
G1 X144.016 Y66.932 E29.3994 F3059
G0 X143.167 Y66.932 F7200
G1 X141.743 Y65.508 E29.5250 F3059
